; generated by PrusaSlicer 2.9.2 on 2025-08-14 at 08:27:49 UTC

; 

; external perimeters extrusion width = 0.45mm
; perimeters extrusion width = 0.45mm
; infill extrusion width = 0.45mm
; solid infill extrusion width = 0.45mm
; top infill extrusion width = 0.40mm
; first layer extrusion width = 0.70mm

M190 S60 ; set bed temperature and wait for it to be reached
M104 S210 ; set temperature
;TYPE:Custom
G28 ; home all axes
G1 Z5 F5000 ; lift nozzle
M109 S210 ; set temperature and wait for it to be reached
G21 ; set units to millimeters
G90 ; use absolute coordinates
M82 ; use absolute distances for extrusion
G92 E0
; Filament gcode
M107
;LAYER_CHANGE
;Z:0.35
;HEIGHT:0.35
G1 E-.2 F2400
G92 E0
G1 Z.75 F7800
G1 X84.084 Y47.797
G1 Z.35
G1 E.2 F1800
;TYPE:Skirt/Brim
;WIDTH:0.7
G1 X85.225 Y45.871 E.40356
G1 X86.966 Y44.465 E.60705
G1 X90 Y43.688 E.89183
G1 X110 Y43.688 E2.71042
G1 X112.203 Y44.084 E2.91395
G1 X114.129 Y45.225 E3.11751
G1 X115.535 Y46.966 E3.321
G1 X116.312 Y50 E3.60578
G1 X116.312 Y70 E5.42437
G1 X115.916 Y72.203 E5.6279
G1 X114.775 Y74.129 E5.83146
G1 X113.034 Y75.535 E6.03495
G1 X110 Y76.312 E6.31973
G1 X90 Y76.312 E8.13832
G1 X87.797 Y75.916 E8.34185
G1 X85.871 Y74.775 E8.54541
G1 X84.465 Y73.034 E8.7489
G1 X83.688 Y70 E9.03368
G1 X83.688 Y50 E10.85227
G1 X84.07 Y47.876 E11.0485
;WIPE_START
G1 F6240
G1 X84.084 Y47.797 E11.01918
G1 X84.322 Y47.395 E10.8485
;WIPE_END
G92 E0
G1 Z.75 F7800
G92 E0
G1 X91.6 Y51.6
G1 Z.35
G1 E.2 F1800
;TYPE:Perimeter
;WIDTH:0.7
G1 X108.4 Y51.6 E1.72762
G1 X108.4 Y60 E2.49143
G1 X108.4 Y68.4 E3.25524
G1 X91.6 Y68.4 E4.78286
G1 X91.6 Y51.68 E6.3032
G1 X90.975 Y50.975 F7800
G1 F1800
G1 X109.025 Y50.975 E7.94448
G1 X109.025 Y60 E8.76512
G1 X109.025 Y69.025 E9.58576
G1 X90.975 Y69.025 E11.22704
G1 X90.975 Y51.055 E12.86104
G1 X90.35 Y50.35 F7800
;TYPE:External perimeter
G1 F1800
G1 X109.65 Y50.35 E14.61598
G1 X109.65 Y60 E15.49345
G1 X109.65 Y69.65 E16.37092
G1 X90.35 Y69.65 E18.12586
G1 X90.35 Y50.43 E19.87353
;WIPE_START
G1 F6240
G1 X90.35 Y50.35 E19.8443
G1 X90.817 Y50.35 E19.67353
;WIPE_END
G92 E0
G1 Z.75 F7800
G1 X108.213 Y53.062
G1 Z.35
G1 E.2 F1800
;TYPE:Solid infill
;WIDTH:0.705315
G1 X107.22 Y52.068 E.32884
G1 X106.328 Y52.068 E.41064
G1 X107.932 Y53.672 E.61866
G1 X107.932 Y54.563 E.70037
G1 X105.437 Y52.068 E1.02394
G1 X104.546 Y52.068 E1.10565
G1 X107.932 Y55.454 E1.54477
G1 X107.932 Y56.345 E1.62648
G1 X103.655 Y52.068 E2.18115
G1 X102.763 Y52.068 E2.26295
G1 X107.932 Y57.237 E2.9333
G1 X107.932 Y58.128 E3.01501
G1 X101.872 Y52.068 E3.80092
G1 X100.981 Y52.068 E3.88263
G1 X107.932 Y59.019 E4.78409
G1 X107.932 Y59.91 E4.8658
G1 X100.09 Y52.068 E5.88281
G1 X99.198 Y52.068 E5.96461
G1 X107.932 Y60.802 E7.0973
G1 X107.932 Y61.693 E7.17901
G1 X98.307 Y52.068 E8.42725
G1 X97.416 Y52.068 E8.50896
G1 X107.932 Y62.584 E9.87275
G1 X107.932 Y63.475 E9.95446
G1 X96.525 Y52.068 E11.43381
G1 X95.633 Y52.068 E11.51561
G1 X107.932 Y64.367 E13.11064
G1 X107.932 Y65.258 E13.19235
G1 X94.742 Y52.068 E14.90293
G1 X93.851 Y52.068 E14.98464
G1 X107.932 Y66.149 E16.81077
G1 X107.932 Y67.04 E16.89248
G1 X92.96 Y52.068 E18.83416
G1 X92.068 Y52.068 E18.91596
G1 X107.931 Y67.932 E20.97326
G1 X107.04 Y67.932 E21.05497
G1 X92.068 Y52.96 E22.99665
G1 X92.068 Y53.851 E23.07836
G1 X106.149 Y67.932 E24.90449
G1 X105.258 Y67.932 E24.9862
G1 X92.068 Y54.742 E26.69678
G1 X92.068 Y55.633 E26.77849
G1 X104.367 Y67.932 E28.37352
G1 X103.475 Y67.932 E28.45532
G1 X92.068 Y56.525 E29.93467
G1 X92.068 Y57.416 E30.01638
G1 X102.584 Y67.932 E31.38017
G1 X101.693 Y67.932 E31.46188
G1 X92.068 Y58.307 E32.71012
G1 X92.068 Y59.198 E32.79183
G1 X100.802 Y67.932 E33.92452
G1 X99.91 Y67.932 E34.00632
G1 X92.068 Y60.09 E35.02333
G1 X92.068 Y60.981 E35.10504
G1 X99.019 Y67.932 E36.0065
G1 X98.128 Y67.932 E36.08821
G1 X92.068 Y61.872 E36.87412
G1 X92.068 Y62.763 E36.95583
G1 X97.237 Y67.932 E37.62618
G1 X96.345 Y67.932 E37.70798
G1 X92.068 Y63.655 E38.26265
G1 X92.068 Y64.546 E38.34436
G1 X95.454 Y67.932 E38.78348
G1 X94.563 Y67.932 E38.86519
G1 X92.068 Y65.437 E39.18876
G1 X92.068 Y66.328 E39.27047
G1 X93.672 Y67.932 E39.47849
G1 X92.78 Y67.932 E39.56029
G1 X91.787 Y66.938 E39.68913
;LAYER_CHANGE
;Z:0.65
;HEIGHT:0.3
;WIPE_START
G1 F6240
G1 X92.174 Y67.325 E39.48913
;WIPE_END
G92 E0
G1 Z.65 F7800
M104 S205 ; set temperature
G1 X90.996 Y69.004
G1 E.2 F1800
;TYPE:Perimeter
;WIDTH:0.45
G1 F3600
G1 X90.996 Y50.996 E1.06612
G1 X109.004 Y50.996 E1.93224
G1 X109.004 Y60 E2.3653
G1 X109.004 Y69.004 E2.79836
G1 X91.076 Y69.004 E3.66063
G1 X90.611 Y69.389 F7800
G1 F3600
G1 X90.611 Y50.611 E4.56379
G1 X109.389 Y50.611 E5.46695
G1 X109.389 Y60 E5.91853
G1 X109.389 Y69.389 E6.37011
G1 X90.691 Y69.389 E7.26942
G1 X90.225 Y69.775 F7800
;TYPE:External perimeter
G1 F1800
G1 X90.225 Y50.225 E8.20971
G1 X109.775 Y50.225 E9.15
G1 X109.775 Y60 E9.62014
G1 X109.775 Y69.775 E10.09028
G1 X90.305 Y69.775 E11.02672
G1 X91.39 Y51.317 F7800
;TYPE:Solid infill
;WIDTH:0.543559
G1 F1200
G1 X91.348 Y51.274 E11.03031
G1 X91.29 Y51.29 E11.03391
G1 X91.274 Y51.348 E11.03751
G1 X91.317 Y51.39 E11.0411
G1 X91.375 Y51.375 E11.04468
;WIDTH:0.45
G1 X91.285 Y51.991 E11.07462
G1 X91.991 Y51.285 E11.12264
G1 X92.536 Y51.285 E11.14885
G1 X91.285 Y52.536 E11.23394
G1 X91.285 Y53.081 E11.26015
G1 X93.081 Y51.285 E11.38231
G1 X93.627 Y51.285 E11.40857
G1 X91.285 Y53.627 E11.56787
G1 X91.285 Y54.172 E11.59408
G1 X94.172 Y51.285 E11.79045
G1 X94.717 Y51.285 E11.81666
G1 X91.285 Y54.717 E12.0501
G1 X91.285 Y55.263 E12.07636
G1 X95.263 Y51.285 E12.34694
G1 X95.808 Y51.285 E12.37315
G1 X91.285 Y55.808 E12.6808
G1 X91.285 Y56.353 E12.70701
G1 X96.353 Y51.285 E13.05173
G1 X96.899 Y51.285 E13.07799
G1 X91.285 Y56.899 E13.45985
G1 X91.285 Y57.444 E13.48606
G1 X97.444 Y51.285 E13.90499
G1 X97.989 Y51.285 E13.9312
G1 X91.285 Y57.989 E14.3872
G1 X91.285 Y58.535 E14.41346
G1 X98.535 Y51.285 E14.9066
G1 X99.08 Y51.285 E14.93281
G1 X91.285 Y59.08 E15.46302
G1 X91.285 Y59.625 E15.48923
G1 X99.625 Y51.285 E16.05651
G1 X100.171 Y51.285 E16.08277
G1 X91.285 Y60.171 E16.68718
G1 X91.285 Y60.716 E16.71339
G1 X100.716 Y51.285 E17.35487
G1 X101.261 Y51.285 E17.38108
G1 X91.285 Y61.261 E18.05964
G1 X91.285 Y61.807 E18.0859
G1 X101.807 Y51.285 E18.80159
G1 X102.352 Y51.285 E18.8278
G1 X91.285 Y62.352 E19.58056
G1 X91.285 Y62.897 E19.60677
G1 X102.897 Y51.285 E20.3966
G1 X103.443 Y51.285 E20.42286
G1 X91.285 Y63.443 E21.24983
G1 X91.285 Y63.988 E21.27604
G1 X103.988 Y51.285 E22.14008
G1 X104.534 Y51.285 E22.16634
G1 X91.285 Y64.534 E23.06752
G1 X91.285 Y65.079 E23.09373
G1 X105.079 Y51.285 E24.03198
G1 X105.624 Y51.285 E24.05819
G1 X91.285 Y65.624 E25.03351
G1 X91.285 Y66.17 E25.05977
G1 X106.17 Y51.285 E26.07223
G1 X106.715 Y51.285 E26.09844
G1 X91.285 Y66.715 E27.14797
G1 X91.285 Y67.26 E27.17418
G1 X107.26 Y51.285 E28.26078
G1 X107.806 Y51.285 E28.28704
G1 X91.285 Y67.806 E29.41078
G1 X91.285 Y68.351 E29.43699
G1 X108.351 Y51.285 E30.5978
G1 X108.847 Y51.183 E30.62216
;WIDTH:0.404381
G1 X108.776 Y51.164 E30.62528
G1 X108.795 Y51.235 E30.6284
G1 X108.836 Y51.224 E30.6302
;WIDTH:0.45
G1 X108.715 Y51.467 E30.64326
G1 X91.467 Y68.715 E31.81645
G1 X91.224 Y68.836 E31.82951
;WIDTH:0.404381
G1 X91.183 Y68.847 E31.83131
G1 X91.164 Y68.776 E31.83443
G1 X91.235 Y68.795 E31.83755
G1 X92.013 Y68.715 F7800
;WIDTH:0.45
G1 F1200
G1 X108.715 Y52.013 E32.9736
G1 X108.715 Y52.558 E32.99981
G1 X92.558 Y68.715 E34.09879
G1 X93.103 Y68.715 E34.125
G1 X108.715 Y53.103 E35.18691
G1 X108.715 Y53.649 E35.21317
G1 X93.649 Y68.715 E36.23794
G1 X94.194 Y68.715 E36.26415
G1 X108.715 Y54.194 E37.25185
G1 X108.715 Y54.739 E37.27806
G1 X94.739 Y68.715 E38.22869
G1 X95.285 Y68.715 E38.25495
G1 X108.715 Y55.285 E39.16844
G1 X108.715 Y55.83 E39.19465
G1 X95.83 Y68.715 E40.07107
G1 X96.375 Y68.715 E40.09728
G1 X108.715 Y56.375 E40.93663
G1 X108.715 Y56.921 E40.96289
G1 X96.921 Y68.715 E41.7651
G1 X97.466 Y68.715 E41.79131
G1 X108.715 Y57.466 E42.55645
G1 X108.715 Y58.011 E42.58266
G1 X98.011 Y68.715 E43.31073
G1 X98.557 Y68.715 E43.33699
G1 X108.715 Y58.557 E44.02792
G1 X108.715 Y59.102 E44.05413
G1 X99.102 Y68.715 E44.70799
G1 X99.647 Y68.715 E44.7342
G1 X108.715 Y59.647 E45.35099
G1 X108.715 Y60.193 E45.37725
G1 X100.193 Y68.715 E45.95691
G1 X100.738 Y68.715 E45.98312
G1 X108.715 Y60.738 E46.52571
G1 X108.715 Y61.283 E46.55192
G1 X101.283 Y68.715 E47.05744
G1 X101.829 Y68.715 E47.0837
G1 X108.715 Y61.829 E47.55208
G1 X108.715 Y62.374 E47.57829
G1 X102.374 Y68.715 E48.0096
G1 X102.92 Y68.715 E48.03586
G1 X108.715 Y62.92 E48.43003
G1 X108.715 Y63.465 E48.45624
G1 X103.465 Y68.715 E48.81334
G1 X104.01 Y68.715 E48.83955
G1 X108.715 Y64.01 E49.15958
G1 X108.715 Y64.556 E49.18584
G1 X104.556 Y68.715 E49.46873
G1 X105.101 Y68.715 E49.49494
G1 X108.715 Y65.101 E49.74076
G1 X108.715 Y65.646 E49.76697
G1 X105.646 Y68.715 E49.97572
G1 X106.192 Y68.715 E50.00198
G1 X108.715 Y66.192 E50.17359
G1 X108.92 Y66.578 E50.19461
;WIDTH:0.404381
G1 X108.849 Y66.559 E50.19773
G1 X108.868 Y66.63 E50.20085
G1 X108.909 Y66.619 E50.20265
;WIDTH:0.45
G1 X108.715 Y66.737 E50.21357
G1 X106.737 Y68.715 E50.34811
G1 X106.619 Y68.909 E50.35903
;WIDTH:0.404381
G1 X106.578 Y68.92 E50.36083
G1 X106.559 Y68.849 E50.36395
G1 X106.63 Y68.868 E50.36707
G1 X108.578 Y67.419 F7800
;WIDTH:0.45
G1 F1200
G1 X107.282 Y68.715 E50.45522
G1 X108.715 Y68.715 E50.52414
G1 X108.715 Y67.282 E50.59306
G1 X108.35 Y68.28 F7800
;WIDTH:0.517749
G1 F1200
G1 X108.31 Y68.24 E50.59626
G1 X108.255 Y68.255 E50.59948
G1 X108.24 Y68.31 E50.6027
G1 X108.28 Y68.35 E50.6059
G1 X108.335 Y68.335 E50.60912
;LAYER_CHANGE
;Z:0.95
;HEIGHT:0.3
;WIPE_START
G1 F6240
G1 X108.28 Y68.35 E50.58829
G1 X108.24 Y68.31 E50.56762
G1 X108.255 Y68.255 E50.54679
G1 X108.31 Y68.24 E50.52596
G1 X108.35 Y68.28 E50.50529
;WIPE_END
G1 E50.40912 F2400
G92 E0
G1 Z.95 F7800
G1 X109.004 Y69.004
G1 E.2 F1800
;TYPE:Perimeter
;WIDTH:0.45
G1 F3600
G1 X90.996 Y69.004 E1.06612
G1 X90.996 Y50.996 E1.93224
G1 X109.004 Y50.996 E2.79836
G1 X109.004 Y60 E3.23142
G1 X109.004 Y68.924 E3.66063
G1 X109.389 Y69.389 F7800
G1 F3600
G1 X90.611 Y69.389 E4.56379
G1 X90.611 Y50.611 E5.46695
G1 X109.389 Y50.611 E6.37011
G1 X109.389 Y60 E6.82169
G1 X109.389 Y69.309 E7.26942
G1 X109.775 Y69.775 F7800
;TYPE:External perimeter
G1 F1800
G1 X90.225 Y69.775 E8.20971
G1 X90.225 Y50.225 E9.15
G1 X109.775 Y50.225 E10.09029
G1 X109.775 Y60 E10.56043
G1 X109.775 Y69.695 E11.02673
G1 X91.317 Y68.61 F7800
;TYPE:Solid infill
;WIDTH:0.543559
G1 F1200
G1 X91.274 Y68.652 E11.03032
G1 X91.29 Y68.71 E11.03392
G1 X91.348 Y68.726 E11.03752
G1 X91.39 Y68.683 E11.04111
G1 X91.375 Y68.625 E11.04469
;WIDTH:0.45
G1 X91.285 Y68.009 E11.07463
G1 X91.991 Y68.715 E11.12265
G1 X92.536 Y68.715 E11.14886
G1 X91.285 Y67.464 E11.23395
G1 X91.285 Y66.919 E11.26016
G1 X93.081 Y68.715 E11.38232
G1 X93.627 Y68.715 E11.40858
G1 X91.285 Y66.373 E11.56788
G1 X91.285 Y65.828 E11.59409
G1 X94.172 Y68.715 E11.79046
G1 X94.717 Y68.715 E11.81667
G1 X91.285 Y65.283 E12.05011
G1 X91.285 Y64.737 E12.07637
G1 X95.263 Y68.715 E12.34695
G1 X95.808 Y68.715 E12.37316
G1 X91.285 Y64.192 E12.68081
G1 X91.285 Y63.647 E12.70702
G1 X96.353 Y68.715 E13.05174
G1 X96.899 Y68.715 E13.078
G1 X91.285 Y63.101 E13.45986
G1 X91.285 Y62.556 E13.48607
G1 X97.444 Y68.715 E13.905
G1 X97.989 Y68.715 E13.93121
G1 X91.285 Y62.011 E14.38721
G1 X91.285 Y61.465 E14.41347
G1 X98.535 Y68.715 E14.90661
G1 X99.08 Y68.715 E14.93282
G1 X91.285 Y60.92 E15.46303
G1 X91.285 Y60.375 E15.48924
G1 X99.625 Y68.715 E16.05652
G1 X100.171 Y68.715 E16.08278
G1 X91.285 Y59.829 E16.68719
G1 X91.285 Y59.284 E16.7134
G1 X100.716 Y68.715 E17.35488
G1 X101.261 Y68.715 E17.38109
G1 X91.285 Y58.739 E18.05965
G1 X91.285 Y58.193 E18.08591
G1 X101.807 Y68.715 E18.8016
G1 X102.352 Y68.715 E18.82781
G1 X91.285 Y57.648 E19.58057
G1 X91.285 Y57.103 E19.60678
G1 X102.897 Y68.715 E20.39661
G1 X103.443 Y68.715 E20.42287
G1 X91.285 Y56.557 E21.24984
G1 X91.285 Y56.012 E21.27605
G1 X103.988 Y68.715 E22.14009
G1 X104.534 Y68.715 E22.16635
G1 X91.285 Y55.466 E23.06753
G1 X91.285 Y54.921 E23.09374
G1 X105.079 Y68.715 E24.03199
G1 X105.624 Y68.715 E24.0582
G1 X91.285 Y54.376 E25.03352
G1 X91.285 Y53.83 E25.05978
G1 X106.17 Y68.715 E26.07224
G1 X106.715 Y68.715 E26.09845
G1 X91.285 Y53.285 E27.14798
G1 X91.285 Y52.74 E27.17419
G1 X107.26 Y68.715 E28.26079
G1 X107.806 Y68.715 E28.28705
G1 X91.285 Y52.194 E29.41079
G1 X91.285 Y51.649 E29.437
G1 X108.351 Y68.715 E30.59781
G1 X108.795 Y68.765 E30.6193
;WIDTH:0.404381
G1 X108.776 Y68.836 E30.62242
G1 X108.847 Y68.817 E30.62554
G1 X108.836 Y68.776 E30.62734
;WIDTH:0.45
G1 X108.715 Y68.533 E30.6404
G1 X91.467 Y51.285 E31.81359
G1 X91.224 Y51.164 E31.82665
;WIDTH:0.404381
G1 X91.235 Y51.205 E31.82845
G1 X91.164 Y51.224 E31.83157
G1 X91.183 Y51.153 E31.83469
G1 X92.013 Y51.285 F7800
;WIDTH:0.45
G1 F1200
G1 X108.715 Y67.987 E32.97074
G1 X108.715 Y67.442 E32.99695
G1 X92.558 Y51.285 E34.09593
G1 X93.103 Y51.285 E34.12214
G1 X108.715 Y66.897 E35.18405
G1 X108.715 Y66.351 E35.21031
G1 X93.649 Y51.285 E36.23508
G1 X94.194 Y51.285 E36.26129
G1 X108.715 Y65.806 E37.24899
G1 X108.715 Y65.261 E37.2752
G1 X94.739 Y51.285 E38.22583
G1 X95.285 Y51.285 E38.25209
G1 X108.715 Y64.715 E39.16558
G1 X108.715 Y64.17 E39.19179
G1 X95.83 Y51.285 E40.06821
G1 X96.375 Y51.285 E40.09442
G1 X108.715 Y63.625 E40.93377
G1 X108.715 Y63.079 E40.96003
G1 X96.921 Y51.285 E41.76224
G1 X97.466 Y51.285 E41.78845
G1 X108.715 Y62.534 E42.55359
G1 X108.715 Y61.989 E42.5798
G1 X98.011 Y51.285 E43.30787
G1 X98.557 Y51.285 E43.33413
G1 X108.715 Y61.443 E44.02506
G1 X108.715 Y60.898 E44.05127
G1 X99.102 Y51.285 E44.70513
G1 X99.647 Y51.285 E44.73134
G1 X108.715 Y60.353 E45.34813
G1 X108.715 Y59.807 E45.37439
G1 X100.193 Y51.285 E45.95405
G1 X100.738 Y51.285 E45.98026
G1 X108.715 Y59.262 E46.52285
G1 X108.715 Y58.717 E46.54906
G1 X101.283 Y51.285 E47.05458
G1 X101.829 Y51.285 E47.08084
G1 X108.715 Y58.171 E47.54922
G1 X108.715 Y57.626 E47.57543
G1 X102.374 Y51.285 E48.00674
G1 X102.92 Y51.285 E48.033
G1 X108.715 Y57.08 E48.42717
G1 X108.715 Y56.535 E48.45338
G1 X103.465 Y51.285 E48.81048
G1 X104.01 Y51.285 E48.83669
G1 X108.715 Y55.99 E49.15672
G1 X108.715 Y55.444 E49.18298
G1 X104.556 Y51.285 E49.46587
G1 X105.101 Y51.285 E49.49208
G1 X108.715 Y54.899 E49.7379
G1 X108.715 Y54.354 E49.76411
G1 X105.646 Y51.285 E49.97286
G1 X106.192 Y51.285 E49.99912
G1 X108.715 Y53.808 E50.17073
G1 X108.868 Y53.37 E50.19304
;WIDTH:0.404381
G1 X108.849 Y53.441 E50.19616
G1 X108.92 Y53.422 E50.19928
G1 X108.909 Y53.381 E50.20108
;WIDTH:0.45
G1 X108.715 Y53.263 E50.212
G1 X106.737 Y51.285 E50.34654
G1 X106.619 Y51.091 E50.35746
;WIDTH:0.404381
G1 X106.63 Y51.132 E50.35926
G1 X106.559 Y51.151 E50.36238
G1 X106.578 Y51.08 E50.3655
;WIDTH:0.45
G1 X107.282 Y51.285 E50.40077
G1 X108.715 Y51.285 E50.46969
G1 X108.715 Y52.718 E50.53861
G1 X107.419 Y51.422 E50.62676
G1 X108.28 Y51.65 F7800
;WIDTH:0.517749
G1 F1200
G1 X108.24 Y51.69 E50.62996
G1 X108.255 Y51.745 E50.63318
G1 X108.31 Y51.76 E50.6364
G1 X108.35 Y51.72 E50.6396
G1 X108.335 Y51.665 E50.64282
M106 S247.35
;LAYER_CHANGE
;Z:1.25
;HEIGHT:0.3
;WIPE_START
G1 F6240
G1 X108.35 Y51.72 E50.62199
G1 X108.31 Y51.76 E50.60132
G1 X108.255 Y51.745 E50.58049
G1 X108.24 Y51.69 E50.55966
G1 X108.28 Y51.65 E50.53899
;WIPE_END
G1 E50.44282 F2400
G92 E0
G1 Z1.25 F7800
G1 X109.004 Y50.996
G1 E.2 F1800
;TYPE:Perimeter
;WIDTH:0.45
G1 F3600
G1 X109.004 Y60 E.63306
G1 X109.004 Y69.004 E1.06612
G1 X90.996 Y69.004 E1.93224
G1 X90.996 Y50.996 E2.79836
G1 X108.924 Y50.996 E3.66063
G1 X109.389 Y50.611 F7800
G1 F3600
G1 X109.389 Y60 E4.11221
G1 X109.389 Y69.389 E4.56379
G1 X90.611 Y69.389 E5.46695
G1 X90.611 Y50.611 E6.37011
G1 X109.309 Y50.611 E7.26942
G1 X109.775 Y50.225 F7800
;TYPE:External perimeter
G1 F1800
G1 X109.775 Y60 E7.73956
G1 X109.775 Y69.775 E8.2097
G1 X90.225 Y69.775 E9.14999
G1 X90.225 Y50.225 E10.09028
G1 X109.695 Y50.225 E11.02672
G1 X104.649 Y51.285 F7800
;TYPE:Internal infill
;WIDTH:0.45
G1 F4800
G1 X102.335 Y51.285 E11.13802
G1 X97.665 Y68.715 E12.00591
G1 X95.351 Y68.715 E12.11721
G1 X105.967 Y68.715 F7800
