; generated by Slic3r 1.3.0 on 2025-08-04 at 23:51:08

; external perimeters extrusion width = 1.92mm (15.06mm^3/s)
; perimeters extrusion width = 2.45mm (24.07mm^3/s)
; infill extrusion width = 2.19mm (30.02mm^3/s)
; solid infill extrusion width = 2.45mm (14.44mm^3/s)
; top infill extrusion width = 2.45mm (12.04mm^3/s)
; support material extrusion width = 1.92mm (22.58mm^3/s)

M107
M190 S60 ; set bed temperature and wait for it to be reached
M104 S205 ; set temperature
G28 ; home all axes
G1 Z5 F5000 ; lift nozzle

; Filament gcode

M109 S205 ; set temperature and wait for it to be reached
G21 ; set units to millimeters
G90 ; use absolute coordinates
M82 ; use absolute distances for extrusion
G92 E0
G1 Z0.280 F9000.000
G1 X87.637 Y73.581 F9000.000
G1 F1500
G1 X88.194 Y72.986 E0.04746
G1 X88.605 Y72.634 E0.07894
G1 X89.038 Y72.325 E0.10990
G1 X89.286 Y72.172 E0.12686
G1 X89.761 Y71.921 E0.15814
G1 X90.074 Y71.784 E0.17799
G1 X90.650 Y71.584 E0.21347
G1 X91.193 Y71.452 E0.24602
G1 X91.504 Y71.400 E0.26436
G1 X92.064 Y71.348 E0.29709
G1 X92.349 Y71.342 E0.31366
G1 X92.898 Y71.367 E0.34568
G1 X93.179 Y71.399 E0.36214
G1 X93.456 Y71.444 E0.37848
G1 X93.985 Y71.567 E0.41007
G1 X94.501 Y71.737 E0.44170
G1 X94.993 Y71.948 E0.47283
G1 X106.297 Y77.407 E1.20338
G1 X108.206 Y78.416 E1.32903
G1 X108.928 Y78.829 E1.37740
G1 X109.542 Y79.217 E1.41967
G1 X110.489 Y79.901 E1.48767
G1 X113.945 Y82.624 E1.74375
G1 X114.502 Y83.105 E1.78656
G1 X115.583 Y84.172 E1.87495
G1 X116.481 Y85.110 E1.95052
G1 X117.700 Y86.482 E2.05731
G1 X118.408 Y87.371 E2.12347
G1 X118.880 Y88.024 E2.17034
G1 X119.247 Y88.584 E2.20929
G1 X119.548 Y89.090 E2.24358
G1 X119.931 Y89.830 E2.29208
G1 X122.254 Y95.391 E2.64275
G1 X122.534 Y96.091 E2.68664
G1 X122.872 Y97.045 E2.74556
G1 X123.179 Y98.041 E2.80618
G1 X123.437 Y99.029 E2.86563
G1 X123.627 Y99.909 E2.91801
G1 X123.805 Y100.988 E2.98167
G1 X123.888 Y101.730 E3.02513
G1 X123.947 Y102.893 E3.09289
G1 X123.939 Y103.615 E3.13488
G1 X123.872 Y104.604 E3.19258
G1 X123.785 Y105.290 E3.23284
G1 X123.680 Y105.902 E3.26899
G1 X122.428 Y112.029 E3.63288
G1 X122.277 Y112.690 E3.67236
G1 X122.075 Y113.431 E3.71702
G1 X121.761 Y114.388 E3.77566
G1 X121.340 Y115.428 E3.84098
G1 X120.902 Y116.326 E3.89912
G1 X120.312 Y117.348 E3.96778
G1 X119.894 Y117.983 E4.01201
G1 X119.435 Y118.615 E4.05747
G1 X118.936 Y119.239 E4.10399
G1 X118.403 Y119.846 E4.15101
G1 X117.840 Y120.430 E4.19819
G1 X117.254 Y120.982 E4.24503
G1 X116.441 Y121.666 E4.30688
G1 X115.869 Y122.096 E4.34852
G1 X115.338 Y122.461 E4.38598
G1 X108.209 Y127.110 E4.88128
G1 X107.786 Y127.364 E4.91002
G1 X107.176 Y127.682 E4.95004
G1 X106.726 Y127.884 E4.97877
G1 X105.986 Y128.160 E5.02471
G1 X105.323 Y128.353 E5.06487
G1 X104.551 Y128.517 E5.11084
G1 X103.866 Y128.609 E5.15102
G1 X102.883 Y128.658 E5.20833
G1 X102.093 Y128.627 E5.25435
G1 X101.406 Y128.548 E5.29457
G1 X100.449 Y128.357 E5.35136
G1 X99.683 Y128.131 E5.39786
G1 X99.038 Y127.887 E5.43796
G1 X98.465 Y127.626 E5.47460
G1 X88.303 Y122.601 E6.13434
G1 X87.261 Y122.015 E6.20388
G1 X86.170 Y121.298 E6.27986
G1 X85.592 Y120.867 E6.32186
G1 X84.858 Y120.255 E6.37747
G1 X84.350 Y119.782 E6.41785
G1 X83.582 Y118.979 E6.48249
G1 X83.000 Y118.294 E6.53484
G1 X82.355 Y117.468 E6.59581
G1 X81.539 Y116.355 E6.67612
G1 X80.966 Y115.528 E6.73467
G1 X80.598 Y114.959 E6.77413
G1 X80.235 Y114.340 E6.81585
G1 X77.700 Y109.529 E7.13232
G1 X77.352 Y108.779 E7.18044
G1 X77.062 Y108.019 E7.22780
G1 X76.858 Y107.376 E7.26706
G1 X76.637 Y106.546 E7.31702
G1 X76.423 Y105.571 E7.37511
G1 X76.261 Y104.698 E7.42680
G1 X76.170 Y104.095 E7.46229
G1 X76.104 Y103.480 E7.49827
G1 X76.062 Y102.787 E7.53871
G1 X76.051 Y102.026 E7.58298
G1 X76.088 Y100.887 E7.64928
G1 X76.629 Y93.142 E8.10113
G1 X76.724 Y92.409 E8.14416
G1 X76.850 Y91.712 E8.18536
G1 X77.006 Y91.033 E8.22590
G1 X77.194 Y90.356 E8.26677
G1 X77.418 Y89.670 E8.30880
G1 X77.684 Y88.959 E8.35296
G1 X78.004 Y88.202 E8.40078
G1 X78.294 Y87.577 E8.44090
G1 X78.845 Y86.500 E8.51128
G1 X79.350 Y85.602 E8.57122
G1 X79.798 Y84.860 E8.62170
G1 X80.498 Y83.786 E8.69629
G1 X87.475 Y73.788 E9.40578
G1 X88.023 Y73.898 F9000.000
G1 F1500
G1 X88.536 Y73.351 E9.44940
G1 X88.913 Y73.028 E9.47829
G1 X89.310 Y72.744 E9.50672
G1 X89.975 Y72.373 E9.55099
G1 X90.261 Y72.248 E9.56921
G1 X90.789 Y72.064 E9.60175
G1 X91.288 Y71.943 E9.63161
G1 X91.573 Y71.896 E9.64843
G1 X92.348 Y71.842 E9.69364
G1 X93.110 Y71.894 E9.73810
G1 X93.850 Y72.049 E9.78206
G1 X94.324 Y72.205 E9.81111
G1 X94.776 Y72.398 E9.83971
G1 X106.075 Y77.855 E10.56993
G1 X107.961 Y78.851 E10.69403
G1 X108.664 Y79.254 E10.74119
G1 X109.259 Y79.629 E10.78218
G1 X110.180 Y80.293 E10.84821
G1 X113.636 Y83.017 E11.10429
G1 X114.159 Y83.468 E11.14450
G1 X115.228 Y84.524 E11.23195
G1 X116.112 Y85.447 E11.30631
G1 X117.320 Y86.808 E11.41223
G1 X118.005 Y87.667 E11.47613
G1 X118.464 Y88.302 E11.52175
G1 X118.820 Y88.843 E11.55943
G1 X119.110 Y89.330 E11.59242
G1 X119.482 Y90.050 E11.63955
G1 X121.792 Y95.582 E11.98846
G1 X122.069 Y96.276 E12.03194
G1 X122.400 Y97.210 E12.08959
G1 X122.700 Y98.185 E12.14898
G1 X122.953 Y99.153 E12.20716
G1 X123.138 Y100.011 E12.25830
G1 X123.309 Y101.047 E12.31940
G1 X123.389 Y101.767 E12.36154
G1 X123.447 Y102.907 E12.42796
G1 X123.439 Y103.605 E12.46856
G1 X123.375 Y104.546 E12.52348
G1 X123.292 Y105.209 E12.56236
G1 X123.190 Y105.802 E12.59740
G1 X121.938 Y111.929 E12.96128
G1 X121.790 Y112.577 E12.99999
G1 X121.594 Y113.296 E13.04333
G1 X121.293 Y114.210 E13.09938
G1 X120.881 Y115.230 E13.16340
G1 X120.463 Y116.087 E13.21884
G1 X119.885 Y117.089 E13.28619
G1 X119.479 Y117.705 E13.32910
G1 X119.033 Y118.318 E13.37323
G1 X118.548 Y118.924 E13.41840
G1 X118.030 Y119.513 E13.46408
G1 X117.483 Y120.080 E13.50989
G1 X116.914 Y120.615 E13.55533
G1 X116.137 Y121.269 E13.61446
G1 X115.583 Y121.685 E13.65476
G1 X115.065 Y122.042 E13.69137
G1 X107.946 Y126.685 E14.18601
G1 X107.544 Y126.927 E14.21331
G1 X106.956 Y127.233 E14.25190
G1 X106.528 Y127.425 E14.27918
G1 X105.835 Y127.684 E14.32224
G1 X105.196 Y127.870 E14.36095
G1 X104.278 Y128.054 E14.41543
G1 X103.354 Y128.146 E14.46947
G1 X102.605 Y128.154 E14.51306
G1 X101.940 Y128.111 E14.55185
G1 X101.024 Y127.974 E14.60575
G1 X100.296 Y127.798 E14.64932
G1 X99.663 Y127.594 E14.68806
G1 X99.227 Y127.424 E14.71529
G1 X98.687 Y127.178 E14.74983
G1 X88.527 Y122.154 E15.40940
G1 X87.527 Y121.592 E15.47618
G1 X86.454 Y120.887 E15.55086
G1 X85.894 Y120.469 E15.59155
G1 X85.195 Y119.886 E15.64450
G1 X84.703 Y119.429 E15.68356
G1 X83.951 Y118.642 E15.74696
G1 X83.383 Y117.973 E15.79802
G1 X82.751 Y117.162 E15.85783
G1 X81.943 Y116.060 E15.93737
G1 X81.378 Y115.244 E15.99510
G1 X81.019 Y114.689 E16.03358
G1 X80.676 Y114.105 E16.07301
G1 X78.143 Y109.298 E16.38920
G1 X77.815 Y108.590 E16.43459
G1 X77.533 Y107.850 E16.48068
G1 X77.336 Y107.229 E16.51862
G1 X77.122 Y106.421 E16.56725
G1 X76.912 Y105.466 E16.62414
G1 X76.752 Y104.608 E16.67495
G1 X76.665 Y104.024 E16.70931
G1 X76.601 Y103.432 E16.74398
G1 X76.561 Y102.761 E16.78307
G1 X76.551 Y102.023 E16.82605
G1 X76.586 Y100.921 E16.89018
G1 X77.125 Y93.202 E17.34052
G1 X77.217 Y92.493 E17.38213
G1 X77.338 Y91.819 E17.42195
G1 X77.489 Y91.162 E17.46116
G1 X77.670 Y90.507 E17.50072
G1 X77.887 Y89.842 E17.54147
G1 X78.146 Y89.151 E17.58440
G1 X78.457 Y88.412 E17.63103
G1 X78.747 Y87.787 E17.67114
G1 X79.281 Y86.743 E17.73936
G1 X79.777 Y85.861 E17.79829
G1 X80.226 Y85.119 E17.84877
G1 X80.908 Y84.072 E17.92146
G1 X87.862 Y74.105 E18.62871
G92 E0
G1 X103.482 Y120.961 F9000.000
G1 F1500
G1 X103.027 Y121.036 E0.02683
G1 X102.567 Y121.019 E0.05367
G1 X102.118 Y120.913 E0.08050
G1 X101.699 Y120.720 E0.10734
G1 X101.326 Y120.448 E0.13417
G1 X101.015 Y120.108 E0.16101
G1 X100.775 Y119.714 E0.18785
G1 X100.619 Y119.280 E0.21469
G1 X100.552 Y118.835 E0.24088
G1 X100.415 Y114.065 E0.51860
G1 X100.413 Y112.864 E0.58851
G1 X100.455 Y112.304 E0.62116
G1 X100.546 Y111.841 E0.64864
G1 X100.701 Y111.504 E0.67020
G1 X100.867 Y111.355 E0.68319
G1 X101.088 Y111.291 E0.69658
G1 X101.361 Y111.368 E0.71306
G1 X101.585 Y111.553 E0.72998
G1 X101.786 Y111.815 E0.74922
G1 X101.967 Y112.141 E0.77088
G1 X102.185 Y112.706 E0.80615
G1 X102.547 Y113.858 E0.87640
G1 X102.696 Y114.262 E0.90148
G1 X102.854 Y114.638 E0.92521
G1 X103.144 Y115.190 E0.96152
G1 X103.648 Y115.958 E1.01497
G1 X103.978 Y116.409 E1.04748
G1 X104.704 Y117.260 E1.11254
G1 X104.839 Y117.448 E1.12605
G1 X105.005 Y117.752 E1.14619
G1 X105.151 Y118.186 E1.17282
G1 X105.209 Y118.643 E1.19965
G1 X105.178 Y119.093 E1.22592
G1 X105.092 Y119.442 E1.24681
G1 X104.906 Y119.860 E1.27346
G1 X104.640 Y120.237 E1.30030
G1 X104.305 Y120.553 E1.32714
G1 X103.914 Y120.798 E1.35397
G1 X103.728 Y120.868 E1.36553
G1 X103.363 Y121.406 F9000.000
G92 E0
G1 X105.822 Y117.917 F9000.000
G1 X105.666 Y116.952 F9000.000
G1 X106.099 Y115.805 F9000.000
G1 X106.625 Y114.948 F9000.000
G1 X105.548 Y113.864 F9000.000
G1 X105.235 Y113.206 F9000.000
G1 X104.504 Y111.069 F9000.000
G1 X104.317 Y109.693 F9000.000
G1 X99.994 Y106.148 F9000.000
G1 X99.985 Y105.844 F9000.000
G1 X97.009 Y100.419 F9000.000
G1 X97.151 Y98.779 F9000.000
G1 X95.409 Y95.859 F9000.000
G1 X95.443 Y95.483 F9000.000
G1 X93.447 Y93.663 F9000.000
G1 X93.374 Y93.377 F9000.000
G1 F1500
G1 X93.050 Y93.510 E0.02042
G1 X92.771 Y93.560 E0.03693
G1 X92.490 Y93.556 E0.05327
G1 X92.194 Y93.496 E0.07086
G1 X91.915 Y93.393 E0.08813
G1 X91.574 Y93.211 E0.11063
G1 X91.099 Y92.870 E0.14465
G1 X90.618 Y92.440 E0.18222
G1 X89.868 Y91.646 E0.24576
G1 X89.363 Y91.012 E0.29290
G1 X89.009 Y90.470 E0.33059
G1 X88.832 Y90.153 E0.35173
G1 X88.527 Y89.496 E0.39390
G1 X88.243 Y88.714 E0.44230
G1 X88.034 Y87.946 E0.48862
G1 X87.899 Y87.147 E0.53579
G1 X87.884 Y86.507 E0.57302
G1 X87.927 Y86.175 E0.59255
G1 X88.001 Y85.901 E0.60904
G1 X88.151 Y85.581 E0.62957
G1 X88.382 Y85.297 E0.65090
G1 X88.707 Y85.081 E0.67363
G1 X89.133 Y84.982 E0.69910
G1 X89.603 Y85.071 E0.72690
G1 X89.989 Y85.299 E0.75298
G1 X90.277 Y85.552 E0.77533
G1 X90.597 Y85.899 E0.80279
G1 X91.796 Y87.384 E0.91384
G1 X93.000 Y88.790 E1.02160
G1 X93.410 Y89.358 E1.06235
G1 X93.690 Y89.833 E1.09441
G1 X93.901 Y90.281 E1.12327
G1 X94.098 Y90.855 E1.15856
G1 X94.194 Y91.333 E1.18695
G1 X94.221 Y91.742 E1.21079
G1 X94.165 Y92.252 E1.24066
G1 X94.010 Y92.686 E1.26749
G1 X93.742 Y93.082 E1.29528
G1 X93.579 Y93.213 E1.30745
G1 X93.118 Y92.942 F9000.000
G1 F1500
G1 X92.909 Y93.027 E1.32058
G1 X92.730 Y93.059 E1.33119
G1 X92.543 Y93.057 E1.34203
G1 X92.331 Y93.014 E1.35465
G1 X92.121 Y92.936 E1.36770
G1 X91.839 Y92.786 E1.38629
G1 X91.413 Y92.479 E1.41684
G1 X90.966 Y92.081 E1.45162
G1 X90.246 Y91.318 E1.51269
G1 X89.769 Y90.719 E1.55726
G1 X89.437 Y90.212 E1.59256
G1 X89.278 Y89.926 E1.61160
G1 X88.989 Y89.305 E1.65143
G1 X88.720 Y88.563 E1.69738
G1 X88.522 Y87.839 E1.74105
G1 X88.398 Y87.099 E1.78470
G1 X88.384 Y86.534 E1.81760
G1 X88.419 Y86.273 E1.83292
G1 X88.473 Y86.073 E1.84495
G1 X88.577 Y85.849 E1.85937
G1 X88.722 Y85.671 E1.87270
G1 X88.908 Y85.547 E1.88574
G1 X89.143 Y85.492 E1.89976
G1 X89.423 Y85.546 E1.91637
G1 X89.694 Y85.706 E1.93467
G1 X89.928 Y85.911 E1.95275
G1 X90.219 Y86.226 E1.97770
G1 X91.411 Y87.703 E2.08821
G1 X92.607 Y89.100 E2.19519
G1 X92.991 Y89.632 E2.23337
G1 X93.247 Y90.066 E2.26275
G1 X93.437 Y90.469 E2.28866
G1 X93.614 Y90.986 E2.32044
G1 X93.697 Y91.399 E2.34496
G1 X93.719 Y91.731 E2.36432
G1 X93.674 Y92.139 E2.38823
G1 X93.560 Y92.459 E2.40797
G1 X93.371 Y92.739 E2.42766
G1 X93.323 Y92.778 E2.43125
G1 X93.121 Y93.167 F9000.000
G92 E0
G1 X93.164 Y100.258 F9000.000
G1 F1500
G1 X92.735 Y100.580 E0.03121
G1 X92.317 Y100.747 E0.05740
G1 X91.922 Y100.818 E0.08073
G1 X91.525 Y100.826 E0.10382
G1 X90.871 Y100.735 E0.14226
G1 X90.017 Y100.478 E0.19417
G1 X89.210 Y100.138 E0.24512
G1 X88.517 Y99.764 E0.29095
G1 X87.990 Y99.389 E0.32862
G1 X87.508 Y98.969 E0.36581
G1 X86.627 Y98.050 E0.43986
G1 X85.909 Y97.160 E0.50648
G1 X85.513 Y96.567 E0.54795
G1 X85.282 Y96.148 E0.57580
G1 X85.125 Y95.797 E0.59819
G1 X84.987 Y95.378 E0.62386
G1 X84.910 Y94.920 E0.65086
G1 X84.918 Y94.472 E0.67692
G1 X85.031 Y93.982 E0.70618
G1 X85.284 Y93.497 E0.73803
G1 X85.666 Y93.098 E0.77018
G1 X86.181 Y92.818 E0.80429
G1 X86.709 Y92.719 E0.83557
G1 X87.161 Y92.753 E0.86193
G1 X87.560 Y92.867 E0.88606
G1 X87.920 Y93.034 E0.90919
G1 X88.264 Y93.241 E0.93255
G1 X88.720 Y93.575 E0.96547
G1 X90.051 Y94.679 E1.06607
G1 X90.332 Y94.890 E1.08651
G1 X92.034 Y95.991 E1.20447
G1 X92.421 Y96.294 E1.23312
G1 X92.704 Y96.560 E1.25571
G1 X93.019 Y96.927 E1.28386
G1 X93.282 Y97.340 E1.31236
G1 X93.481 Y97.780 E1.34042
G1 X93.614 Y98.225 E1.36747
G1 X93.682 Y98.723 E1.39672
G1 X93.661 Y99.188 E1.42381
G1 X93.514 Y99.732 E1.45659
G1 X93.309 Y100.039 E1.47810
G1 X92.795 Y99.910 F9000.000
G1 F1500
G1 X92.488 Y100.140 E1.50046
G1 X92.179 Y100.264 E1.51983
G1 X91.872 Y100.319 E1.53793
G1 X91.555 Y100.326 E1.55642
G1 X90.978 Y100.245 E1.59028
G1 X90.187 Y100.007 E1.63839
G1 X89.427 Y99.686 E1.68640
G1 X88.782 Y99.339 E1.72903
G1 X88.300 Y98.995 E1.76347
G1 X87.853 Y98.607 E1.79793
G1 X87.003 Y97.720 E1.86942
G1 X86.312 Y96.863 E1.93349
G1 X85.940 Y96.307 E1.97240
G1 X85.730 Y95.925 E1.99781
G1 X85.591 Y95.616 E2.01748
G1 X85.474 Y95.257 E2.03945
G1 X85.411 Y94.883 E2.06158
G1 X85.417 Y94.534 E2.08189
G1 X85.504 Y94.157 E2.10437
G1 X85.695 Y93.792 E2.12836
G1 X85.974 Y93.500 E2.15188
G1 X86.351 Y93.294 E2.17686
G1 X86.737 Y93.222 E2.19971
G1 X87.072 Y93.248 E2.21930
G1 X87.385 Y93.337 E2.23822
G1 X87.686 Y93.476 E2.25748
G1 X87.986 Y93.658 E2.27794
G1 X88.413 Y93.970 E2.30871
G1 X89.741 Y95.071 E2.40911
G1 X90.045 Y95.300 E2.43127
G1 X91.743 Y96.398 E2.54894
G1 X92.095 Y96.674 E2.57498
G1 X92.343 Y96.906 E2.59470
G1 X92.616 Y97.226 E2.61920
G1 X92.841 Y97.579 E2.64359
G1 X93.012 Y97.955 E2.66761
G1 X93.124 Y98.331 E2.69042
G1 X93.181 Y98.746 E2.71479
G1 X93.164 Y99.110 E2.73604
G1 X93.052 Y99.522 E2.76088
G1 X92.940 Y99.691 E2.77268
G1 X92.426 Y99.562 F9000.000
G1 F1500
G1 X92.241 Y99.701 E2.78618
G1 X92.040 Y99.781 E2.79872
G1 X91.823 Y99.820 E2.81160
G1 X91.584 Y99.825 E2.82548
G1 X91.086 Y99.755 E2.85477
G1 X90.356 Y99.536 E2.89909
G1 X89.643 Y99.235 E2.94415
G1 X89.046 Y98.914 E2.98358
G1 X88.610 Y98.602 E3.01479
G1 X88.198 Y98.245 E3.04652
G1 X87.379 Y97.389 E3.11545
G1 X86.715 Y96.567 E3.17697
G1 X86.368 Y96.047 E3.21333
G1 X86.177 Y95.701 E3.23630
G1 X86.058 Y95.436 E3.25325
G1 X85.960 Y95.137 E3.27152
G1 X85.911 Y94.845 E3.28876
G1 X85.916 Y94.595 E3.30333
G1 X85.976 Y94.332 E3.31903
G1 X86.105 Y94.086 E3.33517
G1 X86.282 Y93.902 E3.35004
G1 X86.521 Y93.771 E3.36590
G1 X86.764 Y93.725 E3.38033
G1 X86.984 Y93.742 E3.39314
G1 X87.211 Y93.807 E3.40685
G1 X87.451 Y93.918 E3.42225
G1 X87.709 Y94.074 E3.43981
G1 X88.105 Y94.364 E3.46841
G1 X89.431 Y95.463 E3.56862
G1 X89.759 Y95.710 E3.59250
G1 X91.453 Y96.805 E3.70988
G1 X91.770 Y97.054 E3.73331
G1 X91.981 Y97.252 E3.75016
G1 X92.214 Y97.524 E3.77100
G1 X92.401 Y97.818 E3.79128
G1 X92.543 Y98.131 E3.81128
G1 X92.634 Y98.436 E3.82985
G1 X92.679 Y98.768 E3.84934
G1 X92.667 Y99.033 E3.86474
G1 X92.571 Y99.343 E3.88364
G1 X92.492 Y99.784 F9000.000
G92 E0
G1 X109.083 Y113.859 F9000.000
G1 F1500
G1 X109.500 Y113.887 E0.02434
G1 X110.007 Y113.878 E0.05386
G1 X110.920 Y113.761 E0.10743
G1 X111.648 Y113.584 E0.15103
G1 X112.389 Y113.329 E0.19663
G1 X113.157 Y112.981 E0.24568
G1 X113.918 Y112.546 E0.29670
G1 X114.330 Y112.271 E0.32551
G1 X114.623 Y112.047 E0.34697
G1 X114.806 Y112.194 E0.36062
G1 X114.499 Y112.861 E0.40339
G1 X114.103 Y113.547 E0.44944
G1 X113.589 Y114.277 E0.50144
G1 X112.993 Y114.975 E0.55486
G1 X112.665 Y115.309 E0.58208
G1 X112.005 Y115.893 E0.63335
G1 X111.343 Y116.375 E0.68099
G1 X111.039 Y116.565 E0.70187
G1 X110.389 Y116.909 E0.74471
G1 X109.908 Y117.110 E0.77504
G1 X109.583 Y117.213 E0.79486
G1 X109.122 Y117.302 E0.82217
G1 X108.845 Y117.322 E0.83831
G1 X108.543 Y117.315 E0.85594
G1 X108.110 Y117.260 E0.88132
G1 X107.630 Y117.152 E0.90994
G1 X105.327 Y116.450 E1.05004
G1 X104.763 Y115.789 E1.10063
G1 X104.470 Y115.388 E1.12950
G1 X104.007 Y114.683 E1.17863
