; generated by Slic3r 1.3.0 on 2025-07-14 at 22:15:59

; external perimeters extrusion width = 1.92mm (11.29mm^3/s)
; perimeters extrusion width = 2.45mm (28.88mm^3/s)
; infill extrusion width = 2.19mm (34.31mm^3/s)
; solid infill extrusion width = 2.45mm (9.63mm^3/s)
; top infill extrusion width = 2.45mm (7.22mm^3/s)

M107
M190 S60 ; set bed temperature and wait for it to be reached
M104 S205 ; set temperature
G28 ; home all axes
G1 Z5 F5000 ; lift nozzle

; Filament gcode

M109 S205 ; set temperature and wait for it to be reached
G21 ; set units to millimeters
G90 ; use absolute coordinates
M82 ; use absolute distances for extrusion
G92 E0
G1 Z0.200 F7800.000
G1 E-5.00000 F2700.00000
G92 E0
G1 X86.514 Y89.920 F7800.000
G1 E5.00000 F2700.00000
G1 F1800
G1 X88.126 Y88.579 E5.06225
G1 X90.292 Y87.770 E5.13090
G1 X90.584 Y87.723 E5.13969
G1 X92.213 Y87.702 E5.18804
G1 X109.819 Y89.735 E5.71428
G1 X110.370 Y89.823 E5.73083
G1 X112.818 Y90.884 E5.81006
G1 X114.090 Y92.065 E5.86159
G1 X114.388 Y92.450 E5.87605
G1 X114.952 Y93.246 E5.90503
G1 X115.579 Y94.232 E5.93971
G1 X115.916 Y94.847 E5.96053
G1 X116.212 Y95.486 E5.98145
G1 X116.357 Y95.835 E5.99266
G1 X116.637 Y96.712 E6.01999
G1 X118.312 Y102.992 E6.21297
G1 X118.471 Y103.790 E6.23714
G1 X118.554 Y104.830 E6.26812
G1 X118.538 Y105.344 E6.28340
G1 X118.445 Y106.147 E6.30739
G1 X118.239 Y107.057 E6.33508
G1 X117.992 Y107.791 E6.35808
G1 X117.576 Y108.753 E6.38920
G1 X117.209 Y109.453 E6.41267
G1 X117.009 Y109.793 E6.42438
G1 X116.438 Y110.676 E6.45559
G1 X115.974 Y111.300 E6.47869
G1 X115.157 Y112.276 E6.51649
G1 X114.521 Y112.982 E6.54469
G1 X113.818 Y113.688 E6.57428
G1 X113.220 Y114.234 E6.59832
G1 X112.786 Y114.589 E6.61496
G1 X110.776 Y116.073 E6.68914
G1 X109.558 Y116.855 E6.73213
G1 X108.034 Y117.700 E6.78387
G1 X106.861 Y118.281 E6.82272
G1 X106.223 Y118.543 E6.84320
G1 X105.328 Y118.847 E6.87129
G1 X104.001 Y119.244 E6.91241
G1 X103.454 Y119.380 E6.92914
G1 X102.556 Y119.547 E6.95627
G1 X101.213 Y119.692 E6.99637
G1 X100.221 Y119.727 E7.02584
G1 X99.026 Y119.704 E7.06133
G1 X98.060 Y119.594 E7.09019
G1 X91.667 Y118.614 E7.28223
G1 X90.836 Y118.429 E7.30749
G1 X90.496 Y118.329 E7.31802
G1 X89.951 Y118.144 E7.33511
G1 X89.472 Y117.952 E7.35044
G1 X89.009 Y117.736 E7.36559
G1 X88.369 Y117.391 E7.38718
G1 X87.853 Y117.081 E7.40507
G1 X87.369 Y116.760 E7.42229
G1 X86.619 Y116.194 E7.45021
G1 X85.906 Y115.593 E7.47789
G1 X85.375 Y115.085 E7.49971
G1 X84.878 Y114.575 E7.52085
G1 X84.270 Y113.888 E7.54808
G1 X83.504 Y112.944 E7.58418
G1 X82.881 Y112.076 E7.61592
G1 X82.450 Y111.404 E7.63961
G1 X81.898 Y110.422 E7.67307
G1 X81.530 Y109.683 E7.69757
G1 X81.219 Y108.947 E7.72130
G1 X80.899 Y108.040 E7.74985
G1 X80.693 Y107.259 E7.77385
G1 X80.628 Y106.929 E7.78384
G1 X80.528 Y106.200 E7.80567
G1 X80.493 Y105.510 E7.82619
G1 X80.518 Y104.792 E7.84751
G1 X80.614 Y104.034 E7.87019
G1 X80.813 Y103.245 E7.89438
G1 X83.745 Y94.125 E8.17881
G1 X83.894 Y93.709 E8.19192
G1 X84.224 Y92.987 E8.21549
G1 X84.444 Y92.583 E8.22915
G1 X84.727 Y92.130 E8.24500
G1 X85.506 Y91.100 E8.28335
G1 X86.343 Y90.119 E8.32164
G1 E3.32164 F2700.00000
G92 E0
G1 X108.489 Y107.642 F7800.000
G1 E5.00000 F2700.00000
G1 F1800
G1 X108.975 Y107.347 E5.01686
G1 X109.779 Y106.384 E5.05412
G1 X110.015 Y106.051 E5.06625
G1 X110.409 Y105.560 E5.08494
G1 X110.598 Y105.374 E5.09280
G1 X110.787 Y105.223 E5.10000
G1 X111.012 Y105.109 E5.10749
G1 X111.222 Y105.042 E5.11402
G1 X111.175 Y105.251 E5.12038
G1 X111.072 Y105.497 E5.12830
G1 X110.738 Y106.110 E5.14904
G1 X110.431 Y106.571 E5.16547
G1 X109.997 Y107.112 E5.18607
G1 X109.685 Y107.437 E5.19944
G1 X109.465 Y107.728 E5.21028
G1 X109.409 Y107.765 E5.21227
G1 X109.218 Y107.999 E5.22123
G1 X109.150 Y108.048 E5.22372
G1 X108.836 Y108.389 E5.23748
G1 X108.506 Y108.685 E5.25064
G1 X108.285 Y108.840 E5.25866
G1 X108.065 Y109.046 E5.26762
G1 X107.596 Y109.396 E5.28498
G1 X106.663 Y110.073 E5.31920
G1 X105.941 Y110.547 E5.34485
G1 X105.674 Y110.695 E5.35391
G1 X105.536 Y110.742 E5.35824
G1 X105.193 Y110.966 E5.37041
G1 X104.706 Y111.235 E5.38692
G1 X103.769 Y111.699 E5.41798
G1 X103.403 Y111.826 E5.42948
G1 X103.145 Y111.890 E5.43737
G1 X103.037 Y111.942 E5.44093
G1 X102.493 Y112.085 E5.45765
G1 X101.965 Y112.261 E5.47416
G1 X101.325 Y112.374 E5.49345
G1 X100.610 Y112.445 E5.51478
G1 X99.453 Y112.443 E5.54915
G1 X99.097 Y112.394 E5.55982
G1 X98.845 Y112.335 E5.56749
G1 X98.663 Y112.263 E5.57331
G1 X98.423 Y112.129 E5.58147
G1 X98.194 Y111.944 E5.59021
G1 X97.612 Y111.408 E5.61371
G1 X97.086 Y111.034 E5.63286
G1 X96.455 Y110.736 E5.65358
G1 X95.948 Y110.736 E5.66865
G1 X95.530 Y110.831 E5.68138
G1 X94.434 Y111.221 E5.71592
G1 X93.845 Y111.399 E5.73420
G1 X93.510 Y111.459 E5.74429
G1 X93.166 Y111.474 E5.75453
G1 X92.824 Y111.433 E5.76473
G1 X92.447 Y111.313 E5.77648
G1 X92.098 Y111.146 E5.78797
G1 X91.647 Y110.875 E5.80360
G1 X91.338 Y110.625 E5.81540
G1 X91.157 Y110.508 E5.82180
G1 X90.321 Y109.747 E5.85536
G1 X89.898 Y109.281 E5.87403
G1 X89.794 Y109.129 E5.87951
G1 X89.384 Y108.658 E5.89804
G1 X88.935 Y108.048 E5.92055
G1 X88.376 Y107.116 E5.95281
G1 X88.029 Y106.392 E5.97666
G1 X87.831 Y105.836 E5.99418
G1 X87.758 Y105.503 E6.00429
G1 X88.022 Y105.385 E6.01287
G1 X88.253 Y105.317 E6.02001
G1 X88.372 Y105.503 E6.02656
G1 X88.961 Y106.205 E6.05378
G1 X89.081 Y106.387 E6.06022
G1 X89.467 Y106.816 E6.07736
G1 X89.723 Y107.148 E6.08982
G1 X90.538 Y107.754 E6.11997
G1 X90.867 Y107.552 E6.13143
G1 X91.487 Y107.320 E6.15109
G1 X91.823 Y106.649 E6.17336
G1 X91.708 Y105.995 E6.19308
G1 X91.249 Y105.452 E6.21419
G1 X90.254 Y104.409 E6.25700
G1 X89.877 Y103.910 E6.27555
G1 X89.768 Y103.709 E6.28235
G1 X89.691 Y103.403 E6.29170
G1 X89.676 Y103.218 E6.29721
G1 X89.697 Y102.987 E6.30410
G1 X89.765 Y102.602 E6.31571
G1 X89.837 Y102.356 E6.32332
G1 X89.915 Y102.171 E6.32928
G1 X90.008 Y102.001 E6.33504
G1 X90.193 Y101.739 E6.34455
G1 X90.359 Y101.571 E6.35159
G1 X90.644 Y101.357 E6.36217
G1 X91.028 Y101.002 E6.37770
G1 X91.251 Y100.519 E6.39349
G1 X91.209 Y99.944 E6.41061
G1 X90.667 Y98.403 E6.45910
G1 X90.504 Y98.170 E6.46753
G1 X90.504 Y97.203 E6.49626
G1 X90.599 Y96.613 E6.51400
G1 X90.656 Y96.395 E6.52070
G1 X90.744 Y96.220 E6.52650
G1 X91.101 Y95.746 E6.54411
G1 X91.682 Y95.079 E6.57039
G1 X92.825 Y95.573 E6.60736
G1 X93.034 Y96.032 E6.62232
G1 X93.282 Y96.762 E6.64523
G1 X93.405 Y97.259 E6.66042
G1 X93.391 Y97.609 E6.67081
G1 X93.473 Y97.971 E6.68185
G1 X93.871 Y98.881 E6.71134
G1 X94.178 Y99.466 E6.73095
G1 X94.487 Y99.866 E6.74596
G1 X95.061 Y100.107 E6.76444
G1 X95.646 Y100.034 E6.78194
G1 X95.892 Y100.219 E6.79107
G1 X96.376 Y100.364 E6.80608
G1 X96.767 Y100.364 E6.81771
G1 X97.294 Y100.202 E6.83407
G1 X97.729 Y99.901 E6.84977
G1 X98.153 Y99.497 E6.86718
G1 X99.305 Y99.463 E6.90138
G1 X100.002 Y99.400 E6.92218
G1 X100.330 Y99.803 E6.93761
G1 X100.610 Y100.083 E6.94935
G1 X100.929 Y100.292 E6.96068
G1 X101.338 Y100.428 E6.97349
G1 X101.718 Y100.486 E6.98490
G1 X102.046 Y100.450 E6.99470
G1 X102.453 Y100.334 E7.00727
G1 X102.780 Y100.037 E7.02039
G1 X102.937 Y100.104 E7.02547
G1 X103.380 Y100.104 E7.03860
G1 X103.868 Y99.884 E7.05450
G1 X104.199 Y99.515 E7.06923
G1 X104.438 Y99.298 E7.07880
G1 X105.126 Y98.443 E7.11140
G1 X105.642 Y98.153 E7.12898
G1 X105.952 Y97.287 E7.15628
G1 X106.815 Y97.575 E7.18331
G1 X107.613 Y97.300 E7.20838
G1 X108.719 Y97.042 E7.24210
G1 X108.972 Y97.384 E7.25473
G1 X109.267 Y97.842 E7.27088
G1 X109.414 Y98.105 E7.27984
G1 X109.593 Y98.529 E7.29350
G1 X109.438 Y98.967 E7.30731
G1 X109.135 Y99.634 E7.32905
G1 X109.034 Y99.812 E7.33514
G1 X108.792 Y100.012 E7.34445
G1 X108.512 Y100.330 E7.35703
G1 X108.279 Y100.549 E7.36650
G1 X107.826 Y101.179 E7.38954
G1 X108.220 Y101.888 E7.41363
G1 X108.498 Y102.223 E7.42657
G1 X108.648 Y102.444 E7.43448
G1 X108.864 Y102.893 E7.44928
G1 X108.996 Y103.369 E7.46394
G1 X109.014 Y103.507 E7.46809
G1 X109.010 Y103.706 E7.47399
G1 X108.958 Y103.911 E7.48026
G1 X108.807 Y104.138 E7.48836
G1 X108.332 Y104.661 E7.50934
G1 X107.405 Y105.596 E7.54842
G1 X107.073 Y106.115 E7.56672
G1 X107.033 Y106.719 E7.58469
G1 X107.309 Y107.213 E7.60149
G1 X107.815 Y107.615 E7.62069
G1 X108.227 Y107.632 E7.63293
G1 X108.396 Y107.281 F7800.000
G1 F1800
G1 X108.738 Y107.073 E7.64483
G1 X109.496 Y106.166 E7.67991
G1 X109.730 Y105.836 E7.69193
G1 X110.144 Y105.320 E7.71157
G1 X110.360 Y105.107 E7.72059
G1 X110.593 Y104.921 E7.72943
G1 X110.877 Y104.777 E7.73887
G1 X111.058 Y104.720 E7.74453
G1 X111.247 Y104.690 E7.75020
G1 X111.369 Y104.690 E7.75382
G1 X111.560 Y104.739 E7.75967
G1 X111.621 Y104.780 E7.76186
G1 X111.638 Y104.871 E7.76459
G1 X111.618 Y105.043 E7.76975
G1 X111.584 Y105.060 E7.77088
G1 X111.517 Y105.360 E7.78000
G1 X111.392 Y105.658 E7.78961
G1 X111.047 Y106.290 E7.81096
G1 X110.688 Y106.828 E7.83018
G1 X110.645 Y106.857 E7.83172
G1 X110.268 Y107.346 E7.85005
G1 X109.980 Y107.645 E7.86238
G1 X109.709 Y107.994 E7.87551
G1 X109.652 Y108.033 E7.87755
G1 X109.465 Y108.261 E7.88631
G1 X109.388 Y108.316 E7.88912
G1 X109.084 Y108.647 E7.90247
G1 X108.802 Y108.885 E7.91342
G1 X108.758 Y108.945 E7.91562
G1 X108.545 Y109.094 E7.92334
G1 X108.514 Y109.139 E7.92497
G1 X108.293 Y109.321 E7.93346
G1 X106.893 Y110.350 E7.98507
G1 X106.140 Y110.845 E8.01181
G1 X105.820 Y111.023 E8.02269
G1 X105.694 Y111.065 E8.02662
G1 X105.378 Y111.272 E8.03785
G1 X104.872 Y111.551 E8.05500
G1 X103.907 Y112.029 E8.08695
G1 X103.505 Y112.169 E8.09961
G1 X103.267 Y112.227 E8.10687
G1 X103.162 Y112.279 E8.11035
G1 X102.595 Y112.428 E8.12776
G1 X102.053 Y112.608 E8.14472
G1 X101.374 Y112.728 E8.16519
G1 X100.634 Y112.802 E8.18728
G1 X99.426 Y112.800 E8.22315
G1 X99.032 Y112.746 E8.23496
G1 X98.738 Y112.677 E8.24392
G1 X98.510 Y112.586 E8.25121
G1 X98.223 Y112.426 E8.26096
G1 X97.961 Y112.215 E8.27096
G1 X97.386 Y111.686 E8.29413
G1 X96.905 Y111.344 E8.31168
G1 X96.375 Y111.093 E8.32908
G1 X95.988 Y111.093 E8.34058
G1 X95.629 Y111.174 E8.35150
G1 X94.546 Y111.561 E8.38566
G1 X93.928 Y111.747 E8.40481
G1 X93.549 Y111.815 E8.41624
G1 X93.152 Y111.832 E8.42805
G1 X92.748 Y111.783 E8.44011
G1 X92.316 Y111.646 E8.45360
G1 X91.919 Y111.456 E8.46664
G1 X91.742 Y111.335 E8.47301
G1 X91.442 Y111.170 E8.48318
G1 X91.112 Y110.904 E8.49575
G1 X90.935 Y110.790 E8.50200
G1 X90.067 Y109.998 E8.53690
G1 X89.618 Y109.503 E8.55674
G1 X89.511 Y109.348 E8.56233
G1 X89.105 Y108.882 E8.58069
G1 X88.636 Y108.244 E8.60420
G1 X88.061 Y107.286 E8.63738
G1 X87.698 Y106.529 E8.66229
G1 X87.479 Y105.912 E8.68174
G1 X87.419 Y105.615 E8.69073
G1 X87.413 Y105.325 E8.69934
G1 X87.540 Y105.210 E8.70441
G1 X87.898 Y105.049 E8.71609
G1 X88.146 Y104.976 E8.72376
G1 X88.388 Y104.944 E8.73100
G1 X89.248 Y105.992 E8.77126
G1 X89.364 Y106.168 E8.77751
G1 X89.742 Y106.587 E8.79426
G1 X89.976 Y106.891 E8.80565
G1 X90.557 Y107.323 E8.82718
G1 X90.710 Y107.230 E8.83248
G1 X91.230 Y107.035 E8.84899
G1 X91.450 Y106.595 E8.86360
G1 X91.373 Y106.152 E8.87696
G1 X90.995 Y105.705 E8.89432
G1 X89.981 Y104.640 E8.93800
G1 X89.576 Y104.104 E8.95794
G1 X89.433 Y103.839 E8.96687
G1 X89.337 Y103.462 E8.97842
G1 X89.317 Y103.217 E8.98574
G1 X89.343 Y102.939 E8.99400
G1 X89.417 Y102.521 E9.00662
G1 X89.500 Y102.237 E9.01541
G1 X89.593 Y102.017 E9.02250
G1 X89.704 Y101.812 E9.02943
G1 X89.918 Y101.509 E9.04043
G1 X90.124 Y101.301 E9.04913
G1 X90.415 Y101.082 E9.05994
G1 X90.734 Y100.788 E9.07281
G1 X90.888 Y100.453 E9.08377
G1 X90.856 Y100.015 E9.09681
G1 X90.348 Y98.570 E9.14229
G1 X90.154 Y98.292 E9.15234
G1 X90.147 Y98.243 E9.15382
G1 X90.147 Y97.174 E9.18555
G1 X90.249 Y96.539 E9.20466
G1 X90.321 Y96.268 E9.21298
G1 X90.439 Y96.031 E9.22084
G1 X90.823 Y95.521 E9.23980
G1 X91.580 Y94.653 E9.27398
G1 X92.054 Y94.844 E9.28915
G1 X93.070 Y95.305 E9.32229
G1 X93.136 Y95.394 E9.32557
G1 X93.366 Y95.900 E9.34209
G1 X93.625 Y96.662 E9.36597
G1 X93.759 Y97.201 E9.38246
G1 X93.750 Y97.578 E9.39366
G1 X93.813 Y97.860 E9.40223
G1 X94.193 Y98.727 E9.43033
G1 X94.480 Y99.272 E9.44863
G1 X94.712 Y99.573 E9.45993
G1 X95.111 Y99.741 E9.47279
G1 X95.507 Y99.692 E9.48462
G1 X95.718 Y99.593 E9.49155
G1 X95.851 Y99.742 E9.49749
G1 X96.055 Y99.895 E9.50507
G1 X96.428 Y100.007 E9.51663
G1 X96.714 Y100.007 E9.52511
G1 X97.136 Y99.877 E9.53824
G1 X97.503 Y99.623 E9.55147
G1 X98.012 Y99.144 E9.57224
G1 X99.283 Y99.106 E9.61001
G1 X100.160 Y99.027 E9.63613
G1 X100.596 Y99.564 E9.65667
G1 X100.836 Y99.804 E9.66678
G1 X101.085 Y99.968 E9.67562
G1 X101.422 Y100.079 E9.68615
G1 X101.726 Y100.126 E9.69528
G1 X101.977 Y100.099 E9.70279
G1 X102.280 Y100.012 E9.71214
G1 X102.439 Y99.876 E9.71837
G1 X102.694 Y99.611 E9.72926
G1 X103.011 Y99.747 E9.73949
G1 X103.303 Y99.747 E9.74817
G1 X103.653 Y99.590 E9.75956
G1 X103.946 Y99.263 E9.77259
G1 X104.177 Y99.053 E9.78186
G1 X104.897 Y98.157 E9.81599
G1 X105.351 Y97.907 E9.83138
G1 X105.535 Y97.393 E9.84757
G1 X105.373 Y97.070 E9.85830
G1 X105.045 Y96.715 E9.87264
G1 X105.205 Y96.382 E9.88362
G1 X105.766 Y96.297 E9.90046
G1 X106.169 Y96.549 E9.91456
G1 X106.165 Y96.596 E9.91596
G1 X106.310 Y97.030 E9.92956
G1 X106.813 Y97.198 E9.94533
G1 X107.512 Y96.957 E9.96728
G1 X108.870 Y96.645 E10.00865
G1 X109.266 Y97.182 E10.02845
G1 X109.733 Y97.943 E10.05496
G1 X109.894 Y98.295 E10.06646
G1 X109.942 Y98.450 E10.07128
G1 X109.949 Y98.576 E10.07504
G1 X109.768 Y99.104 E10.09160
G1 X109.453 Y99.796 E10.11419
G1 X109.311 Y100.046 E10.12271
G1 X109.041 Y100.269 E10.13311
G1 X108.769 Y100.578 E10.14535
G1 X108.549 Y100.785 E10.15431
G1 X108.249 Y101.203 E10.16960
G1 X108.517 Y101.685 E10.18598
G1 X108.784 Y102.009 E10.19844
G1 X108.958 Y102.265 E10.20763
G1 X109.200 Y102.767 E10.22417
G1 X109.347 Y103.297 E10.24052
G1 X109.372 Y103.488 E10.24623
G1 X109.365 Y103.774 E10.25472
G1 X109.298 Y104.041 E10.26291
G1 X109.093 Y104.353 E10.27399
G1 X108.591 Y104.907 E10.29617
G1 X107.686 Y105.820 E10.33435
G1 X107.424 Y106.230 E10.34881
G1 X107.397 Y106.637 E10.36092
G1 X107.586 Y106.978 E10.37249
G1 X107.946 Y107.263 E10.38613
G1 X108.134 Y107.271 E10.39170
G1 X107.760 Y106.556 F7800.000
G1 F1800
G1 X107.864 Y106.742 E10.39803
G1 X108.077 Y106.911 E10.40611
G1 X108.302 Y106.920 E10.41282
G1 X108.502 Y106.799 E10.41976
G1 X109.213 Y105.948 E10.45267
G1 X109.445 Y105.621 E10.46459
G1 X109.879 Y105.080 E10.48516
G1 X110.123 Y104.840 E10.49534
G1 X110.399 Y104.619 E10.50583
G1 X110.741 Y104.446 E10.51722
G1 X110.976 Y104.371 E10.52454
G1 X111.220 Y104.333 E10.53186
G1 X111.414 Y104.333 E10.53765
G1 X111.707 Y104.409 E10.54662
G1 X111.877 Y104.522 E10.55268
G1 X111.959 Y104.645 E10.55708
G1 X111.996 Y104.845 E10.56311
G1 X111.991 Y104.988 E10.56738
G1 X111.957 Y105.172 E10.57292
G1 X111.895 Y105.304 E10.57724
G1 X111.859 Y105.469 E10.58227
G1 X111.556 Y106.127 E10.60377
G1 X111.481 Y106.222 E10.60737
G1 X111.357 Y106.469 E10.61559
G1 X110.946 Y107.086 E10.63759
G1 X110.892 Y107.122 E10.63951
G1 X110.538 Y107.579 E10.65668
G1 X110.275 Y107.853 E10.66797
G1 X110.235 Y107.933 E10.67062
G1 X110.193 Y107.961 E10.67210
G1 X109.953 Y108.261 E10.68351
G1 X109.894 Y108.300 E10.68562
G1 X109.712 Y108.523 E10.69417
G1 X109.627 Y108.585 E10.69729
G1 X109.331 Y108.905 E10.71023
G1 X109.064 Y109.132 E10.72065
G1 X109.009 Y109.204 E10.72334
G1 X108.804 Y109.348 E10.73076
G1 X108.768 Y109.403 E10.73271
G1 X108.659 Y109.470 E10.73652
G1 X108.522 Y109.596 E10.74205
G1 X107.173 Y110.573 E10.79151
G1 X107.122 Y110.628 E10.79373
G1 X106.454 Y111.052 E10.81721
G1 X106.339 Y111.143 E10.82158
G1 X105.965 Y111.350 E10.83427
G1 X105.852 Y111.389 E10.83782
G1 X105.562 Y111.579 E10.84810
G1 X105.037 Y111.868 E10.86589
G1 X104.046 Y112.359 E10.89874
G1 X103.606 Y112.511 E10.91255
G1 X102.697 Y112.770 E10.94063
G1 X102.141 Y112.956 E10.95803
G1 X101.423 Y113.082 E10.97968
G1 X100.657 Y113.158 E11.00253
G1 X99.399 Y113.157 E11.03989
G1 X98.966 Y113.097 E11.05284
G1 X98.630 Y113.019 E11.06310
G1 X98.356 Y112.909 E11.07186
G1 X98.022 Y112.724 E11.08320
G1 X97.727 Y112.485 E11.09446
G1 X97.161 Y111.964 E11.11730
G1 X96.724 Y111.653 E11.13325
G1 X96.295 Y111.450 E11.14733
G1 X96.028 Y111.450 E11.15527
G1 X95.729 Y111.518 E11.16435
