; generated by Slic3r 1.3.0 on 2025-07-23 at 15:12:06

; external perimeters extrusion width = 1.92mm (15.06mm^3/s)
; perimeters extrusion width = 2.45mm (24.07mm^3/s)
; infill extrusion width = 2.19mm (30.02mm^3/s)
; solid infill extrusion width = 2.45mm (14.44mm^3/s)
; top infill extrusion width = 2.45mm (12.04mm^3/s)
; support material extrusion width = 1.92mm (22.58mm^3/s)

M107
M190 S60 ; set bed temperature and wait for it to be reached
M104 S205 ; set temperature
G28 ; home all axes
G1 Z5 F5000 ; lift nozzle

; Filament gcode

M109 S205 ; set temperature and wait for it to be reached
G21 ; set units to millimeters
G90 ; use absolute coordinates
M82 ; use absolute distances for extrusion
G92 E0
G1 Z0.280 F9000.000
G1 E-5.00000 F2700.00000
G92 E0
G1 X95.191 Y75.164 F9000.000
G1 E5.00000 F2700.00000
G1 F1500
G1 X96.869 Y73.770 E5.12696
G1 X99.800 Y73.005 E5.30325
G1 X100.200 Y73.005 E5.32652
G1 X102.345 Y73.402 E5.45349
G1 X104.809 Y75.164 E5.62977
G1 X123.976 Y98.167 E7.37225
G1 X124.675 Y99.081 E7.43920
G1 X125.129 Y99.736 E7.48557
G1 X125.482 Y100.294 E7.52400
G1 X126.111 Y101.415 E7.59880
G1 X126.535 Y102.290 E7.65539
G1 X126.796 Y102.895 E7.69374
G1 X127.141 Y103.805 E7.75036
G1 X127.438 Y104.731 E7.80695
G1 X127.686 Y105.672 E7.86358
G1 X127.790 Y106.150 E7.89208
G1 X127.939 Y106.934 E7.93849
G1 X128.071 Y107.897 E7.99508
G1 X128.153 Y108.867 E8.05170
G1 X128.184 Y109.839 E8.10829
G1 X128.164 Y110.812 E8.16493
G1 X128.093 Y111.782 E8.22154
G1 X127.971 Y112.747 E8.27814
G1 X127.799 Y113.704 E8.33476
G1 X127.578 Y114.651 E8.39134
G1 X127.306 Y115.586 E8.44799
G1 X126.987 Y116.504 E8.50455
G1 X126.695 Y117.227 E8.54994
G1 X126.345 Y118.004 E8.59953
G1 X125.900 Y118.869 E8.65614
G1 X125.409 Y119.711 E8.71284
G1 X124.877 Y120.524 E8.76938
G1 X124.303 Y121.309 E8.82600
G1 X123.688 Y122.062 E8.88254
G1 X122.815 Y123.008 E8.95748
G1 X122.113 Y123.682 E9.01409
G1 X121.378 Y124.317 E9.07068
G1 X120.860 Y124.726 E9.10908
G1 X120.070 Y125.295 E9.16572
G1 X119.253 Y125.822 E9.22231
G1 X118.409 Y126.305 E9.27887
G1 X117.540 Y126.744 E9.33551
G1 X116.650 Y127.136 E9.39210
G1 X115.741 Y127.481 E9.44873
G1 X114.815 Y127.778 E9.50531
G1 X113.568 Y128.096 E9.58021
G1 X112.612 Y128.279 E9.63682
G1 X111.649 Y128.411 E9.69340
G1 X110.679 Y128.493 E9.75005
G1 X110.021 Y128.520 E9.78840
G1 X89.979 Y128.520 E10.95472
G1 X89.007 Y128.472 E11.01138
G1 X88.040 Y128.374 E11.06794
G1 X87.078 Y128.225 E11.12457
G1 X86.126 Y128.027 E11.18118
G1 X85.185 Y127.778 E11.23781
G1 X84.556 Y127.582 E11.27614
G1 X83.807 Y127.314 E11.32247
G1 X82.744 Y126.875 E11.38937
G1 X81.869 Y126.452 E11.44594
G1 X81.016 Y125.982 E11.50258
G1 X80.191 Y125.470 E11.55911
G1 X79.140 Y124.726 E11.63402
G1 X78.381 Y124.116 E11.69068
G1 X77.656 Y123.468 E11.74729
G1 X76.966 Y122.783 E11.80393
G1 X76.312 Y122.062 E11.86058
G1 X75.697 Y121.309 E11.91712
G1 X75.304 Y120.780 E11.95546
G1 X74.757 Y119.976 E12.01206
G1 X74.254 Y119.143 E12.06868
G1 X73.794 Y118.285 E12.12532
G1 X73.305 Y117.227 E12.19317
G1 X72.905 Y116.210 E12.25678
G1 X72.601 Y115.286 E12.31341
G1 X72.345 Y114.347 E12.37001
G1 X72.140 Y113.396 E12.42662
G1 X71.984 Y112.436 E12.48323
G1 X71.879 Y111.469 E12.53983
G1 X71.824 Y110.497 E12.59648
G1 X71.821 Y109.525 E12.65306
G1 X71.868 Y108.553 E12.70968
G1 X71.966 Y107.586 E12.76627
G1 X72.115 Y106.624 E12.82292
G1 X72.314 Y105.672 E12.87953
G1 X72.562 Y104.731 E12.93615
G1 X72.758 Y104.102 E12.97449
G1 X73.088 Y103.187 E13.03108
G1 X73.465 Y102.290 E13.08772
G1 X73.889 Y101.415 E13.14431
G1 X74.357 Y100.563 E13.20087
G1 X74.871 Y99.736 E13.25753
G1 X75.427 Y98.937 E13.31418
G1 X76.024 Y98.167 E13.37086
G1 X95.023 Y75.365 E15.09807
G1 X95.575 Y75.484 F9000.000
G1 F1500
G1 X97.192 Y74.163 E15.21959
G1 X99.800 Y73.505 E15.37612
G1 X100.200 Y73.505 E15.39940
G1 X102.250 Y73.901 E15.52092
G1 X104.425 Y75.484 E15.67745
G1 X123.584 Y98.477 E17.41918
G1 X124.268 Y99.370 E17.48460
G1 X124.707 Y100.003 E17.52945
G1 X125.060 Y100.561 E17.56787
G1 X125.663 Y101.636 E17.63963
G1 X126.076 Y102.488 E17.69470
G1 X126.336 Y103.093 E17.73305
G1 X126.672 Y103.978 E17.78815
G1 X126.961 Y104.880 E17.84322
G1 X127.202 Y105.795 E17.89832
G1 X127.300 Y106.248 E17.92530
G1 X127.444 Y107.006 E17.97019
G1 X127.573 Y107.943 E18.02525
G1 X127.653 Y108.887 E18.08035
G1 X127.684 Y109.832 E18.13542
G1 X127.665 Y110.779 E18.19053
G1 X127.596 Y111.723 E18.24562
G1 X127.478 Y112.663 E18.30070
G1 X127.312 Y113.595 E18.35580
G1 X127.096 Y114.516 E18.41086
G1 X126.833 Y115.426 E18.46598
G1 X126.523 Y116.319 E18.52102
G1 X126.232 Y117.039 E18.56618
G1 X125.890 Y117.795 E18.61447
G1 X125.457 Y118.637 E18.66956
G1 X124.980 Y119.456 E18.72473
G1 X124.461 Y120.246 E18.77975
G1 X123.902 Y121.010 E18.83485
G1 X123.304 Y121.742 E18.88986
G1 X122.466 Y122.650 E18.96176
G1 X121.783 Y123.306 E19.01685
G1 X121.068 Y123.925 E19.07192
G1 X120.550 Y124.334 E19.11032
G1 X119.781 Y124.888 E19.16544
G1 X118.985 Y125.400 E19.22050
G1 X118.164 Y125.869 E19.27554
G1 X117.319 Y126.295 E19.33065
G1 X116.453 Y126.677 E19.38573
G1 X115.567 Y127.012 E19.44083
G1 X114.666 Y127.301 E19.49589
G1 X113.470 Y127.606 E19.56774
G1 X112.540 Y127.784 E19.62283
G1 X111.603 Y127.913 E19.67789
G1 X110.659 Y127.994 E19.73302
G1 X110.001 Y128.020 E19.77136
G1 X90.220 Y128.025 E20.92248
G1 X89.341 Y127.994 E20.97369
G1 X88.397 Y127.913 E21.02881
G1 X87.460 Y127.784 E21.08388
G1 X86.530 Y127.606 E21.13896
G1 X85.611 Y127.380 E21.19405
G1 X84.705 Y127.105 E21.24915
G1 X83.814 Y126.784 E21.30424
G1 X82.681 Y126.295 E21.37605
G1 X81.836 Y125.869 E21.43116
G1 X81.261 Y125.546 E21.46951
G1 X80.458 Y125.048 E21.52451
G1 X79.680 Y124.506 E21.57967
G1 X78.932 Y123.925 E21.63479
G1 X78.217 Y123.306 E21.68986
G1 X77.534 Y122.650 E21.74494
G1 X76.886 Y121.959 E21.80011
G1 X76.098 Y121.010 E21.87186
G1 X75.539 Y120.246 E21.92695
G1 X75.020 Y119.456 E21.98197
G1 X74.683 Y118.888 E22.02037
G1 X74.237 Y118.053 E22.07549
G1 X73.768 Y117.039 E22.14052
G1 X73.378 Y116.050 E22.20238
G1 X73.082 Y115.150 E22.25749
G1 X72.833 Y114.237 E22.31257
G1 X72.632 Y113.312 E22.36766
G1 X72.481 Y112.378 E22.42275
G1 X72.378 Y111.437 E22.47782
G1 X72.324 Y110.491 E22.53294
G1 X72.320 Y109.545 E22.58800
G1 X72.366 Y108.600 E22.64310
G1 X72.461 Y107.658 E22.69817
G1 X72.605 Y106.722 E22.75329
G1 X72.798 Y105.795 E22.80838
G1 X73.039 Y104.880 E22.86348
G1 X73.235 Y104.251 E22.90182
G1 X73.557 Y103.360 E22.95689
G1 X73.924 Y102.488 E23.01200
G1 X74.337 Y101.636 E23.06707
G1 X74.793 Y100.808 E23.12210
G1 X75.293 Y100.003 E23.17725
G1 X75.834 Y99.226 E23.23237
G1 X76.507 Y98.366 E23.29589
G1 X95.407 Y75.685 E25.01398
G1 E20.01398 F2700.00000
G92 E0
G1 X106.880 Y120.912 F9000.000
G1 E5.00000 F2700.00000
G1 F1500
G1 X106.880 Y116.247 E5.27144
G1 X112.370 Y116.247 E5.59095
G1 X112.370 Y120.898 E5.86158
G1 X111.528 Y121.080 E5.91175
G1 X110.942 Y121.166 E5.94619
G1 X110.353 Y121.221 E5.98063
G1 X109.762 Y121.245 E6.01506
G1 X109.170 Y121.237 E6.04950
G1 X108.579 Y121.199 E6.08393
G1 X107.992 Y121.130 E6.11837
G1 X107.136 Y120.969 E6.16905
G1 X106.380 Y120.382 F9000.000
G1 F1500
G1 X106.380 Y115.747 E6.43877
G1 X112.870 Y115.747 E6.81647
G1 X112.870 Y120.382 E7.08619
G1 X114.571 Y120.382 E7.18517
G1 X114.624 Y120.615 E7.19909
G1 X113.987 Y120.901 E7.23973
G1 X113.407 Y121.116 E7.27570
G1 X112.817 Y121.299 E7.31165
G1 X112.219 Y121.452 E7.34761
G1 X111.613 Y121.573 E7.38357
G1 X111.001 Y121.663 E7.41953
G1 X110.386 Y121.720 E7.45549
G1 X109.769 Y121.745 E7.49145
G1 X109.151 Y121.737 E7.52741
G1 X108.534 Y121.697 E7.56337
G1 X107.920 Y121.625 E7.59933
G1 X107.311 Y121.521 E7.63529
G1 X106.709 Y121.385 E7.67125
G1 X106.114 Y121.218 E7.70721
G1 X105.528 Y121.020 E7.74317
G1 X104.954 Y120.792 E7.77913
G1 X104.576 Y120.618 E7.80335
G1 X104.628 Y120.382 E7.81740
G1 X106.117 Y120.382 E7.90409
G1 X105.880 Y119.882 F9000.000
G1 F1500
G1 X105.880 Y115.247 E8.17381
G1 X113.370 Y115.247 E8.60969
G1 X113.370 Y119.882 E8.87941
G1 X116.487 Y119.882 E9.06078
G1 X116.553 Y120.091 E9.07354
G1 X115.903 Y120.510 E9.11853
G1 X115.343 Y120.824 E9.15592
G1 X114.604 Y121.180 E9.20365
G1 X114.173 Y121.365 E9.23096
G1 X113.569 Y121.589 E9.26845
G1 X112.954 Y121.781 E9.30593
G1 X112.330 Y121.940 E9.34341
G1 X111.698 Y122.066 E9.38090
G1 X111.061 Y122.159 E9.41838
G1 X110.419 Y122.219 E9.45587
G1 X109.776 Y122.245 E9.49335
G1 X109.132 Y122.237 E9.53083
G1 X108.489 Y122.195 E9.56831
G1 X107.849 Y122.120 E9.60580
G1 X107.214 Y122.012 E9.64328
G1 X106.586 Y121.870 E9.68077
G1 X105.966 Y121.696 E9.71825
G1 X105.356 Y121.489 E9.75573
G1 X104.757 Y121.251 E9.79322
G1 X104.172 Y120.982 E9.83070
G1 X103.602 Y120.683 E9.86819
G1 X103.048 Y120.354 E9.90567
G1 X102.659 Y120.095 E9.93283
G1 X102.724 Y119.882 E9.94578
G1 X105.618 Y119.882 E10.11417
G1 X107.630 Y119.844 F9000.000
G1 E5.11417 F2700.00000
G92 E0
G1 X105.642 Y120.711 F9000.000
G1 X117.931 Y117.276 F9000.000
G1 X117.742 Y117.477 F9000.000
G1 E5.00000 F2700.00000
G1 F1500
G1 X117.770 Y117.252 E5.01316
G1 X117.677 Y116.486 E5.05806
G1 X117.591 Y116.247 E5.07283
G1 X118.996 Y116.247 E5.15458
G1 X118.486 Y116.932 E5.20427
G1 X117.970 Y117.536 E5.25047
G1 X117.130 Y119.035 F9000.000
G1 F1500
G1 X117.130 Y118.063 E5.30708
G1 X117.187 Y117.903 E5.31696
G1 X117.266 Y117.252 E5.35509
G1 X117.187 Y116.602 E5.39322
G1 X117.130 Y116.442 E5.40310
G1 X117.130 Y115.747 E5.44352
G1 X119.877 Y115.747 E5.60340
G1 X119.248 Y116.746 E5.67207
G1 X118.879 Y117.241 E5.70803
G1 X118.485 Y117.716 E5.74393
G1 X118.065 Y118.171 E5.77995
G1 X117.623 Y118.602 E5.81591
G1 X117.327 Y118.862 E5.83882
G1 X116.630 Y120.037 F9000.000
G1 F1500
G1 X116.630 Y117.976 E5.95874
G1 X116.697 Y117.787 E5.97042
G1 X116.762 Y117.252 E6.00177
G1 X116.697 Y116.717 E6.03312
G1 X116.630 Y116.528 E6.04480
G1 X116.630 Y115.247 E6.11935
G1 X120.708 Y115.247 E6.35669
G1 X120.343 Y115.943 E6.40239
G1 X119.917 Y116.643 E6.45012
G1 X119.657 Y117.034 E6.47743
G1 X119.272 Y117.550 E6.51492
G1 X118.861 Y118.045 E6.55234
G1 X118.424 Y118.519 E6.58988
G1 X117.963 Y118.969 E6.62737
G1 X117.479 Y119.394 E6.66485
G1 X116.844 Y119.885 E6.71153
G1 X117.160 Y118.369 F9000.000
G1 E1.71153 F2700.00000
G92 E0
G1 X117.413 Y118.489 F9000.000
G1 X101.833 Y118.419 F9000.000
G1 X102.120 Y119.066 F9000.000
G1 E5.00000 F2700.00000
G1 F1500
G1 X101.379 Y118.409 E5.05760
G1 X100.980 Y117.988 E5.09140
G1 X100.980 Y115.747 E5.22177
G1 X102.120 Y115.747 E5.28812
G1 X102.120 Y116.442 E5.32854
G1 X102.063 Y116.602 E5.33843
G1 X101.984 Y117.252 E5.37655
G1 X102.063 Y117.903 E5.41469
G1 X102.120 Y118.063 E5.42457
G1 X102.120 Y118.803 E5.46767
G1 X102.620 Y120.077 F9000.000
G1 F1500
G1 X101.995 Y119.612 E5.51299
G1 X101.500 Y119.201 E5.55047
G1 X101.028 Y118.765 E5.58784
G1 X100.480 Y118.187 E5.63420
G1 X100.480 Y115.247 E5.80527
G1 X102.620 Y115.247 E5.92980
G1 X102.620 Y116.528 E6.00435
G1 X102.553 Y116.717 E6.01603
G1 X102.488 Y117.252 E6.04738
G1 X102.553 Y117.787 E6.07873
G1 X102.620 Y117.976 E6.09041
G1 X102.620 Y119.815 E6.19742
G1 X102.161 Y119.448 F9000.000
G1 X101.870 Y118.467 F9000.000
G1 F1500
G1 X101.230 Y117.279 E6.25369
G1 X101.504 Y116.865 F9000.000
G1 F1500
G1 X101.482 Y117.283 E6.27740
G1 X101.538 Y118.213 E6.33030
G1 X101.504 Y116.865 F9000.000
G1 F1500
G1 X101.550 Y116.343 E6.36569
G1 X101.550 Y115.997 E6.38905
G1 E1.38905 F2700.00000
G92 E0
G1 X101.512 Y116.279 F9000.000
G1 X106.600 Y115.967 F9000.000
G1 X107.238 Y116.888 F9000.000
G1 E5.00000 F2700.00000
G1 F1500
G1 X107.521 Y116.606 E5.02465
G1 X108.270 Y116.606 E5.07082
G1 X107.238 Y117.638 E5.16077
G1 X107.238 Y118.386 E5.20694
G1 X109.019 Y116.606 E5.36218
G1 X109.768 Y116.606 E5.40834
G1 X107.238 Y119.135 E5.62887
G1 X107.238 Y119.884 E5.67504
G1 X110.517 Y116.606 E5.96085
G1 X111.266 Y116.606 E6.00702
G1 X107.238 Y120.633 E6.35812
G1 X107.238 Y120.653 E6.35935
G1 X107.364 Y120.681 E6.36730
G1 X107.855 Y120.765 E6.39800
G1 X112.012 Y116.609 E6.76037
G1 X112.012 Y117.357 E6.80654
G1 X108.524 Y120.845 E7.11059
G1 X109.237 Y120.881 E7.15459
G1 X112.012 Y118.106 E7.39651
G1 X112.012 Y118.855 E7.44267
G1 X109.996 Y120.870 E7.61836
G1 X110.816 Y120.800 E7.66906
G1 X112.012 Y119.604 E7.77330
G1 X112.012 Y120.353 E7.81947
G1 X111.729 Y120.636 E7.84414
G1 X112.620 Y120.860 F9000.000
G1 F1500
G1 X112.842 Y120.826 E7.85292
G1 F1500
G1 X113.286 Y120.759 E7.86551
G1 F1500
G1 X113.563 Y120.709 E7.87032
G1 F1500
G1 X113.840 Y120.660 E7.87208
G1 X114.841 Y120.443 F9000.000
G1 F1500
G1 X115.936 Y120.194 E7.93074
G1 E2.93074 F2700.00000
G92 E0
G1 X106.630 Y120.863 F9000.000
G1 E5.00000 F2700.00000
G1 F1500
G1 X106.240 Y120.810 E5.01587
G1 F1500
G1 X105.941 Y120.760 E5.02628
G1 F1500
G1 X105.642 Y120.711 E5.03322
G1 F1500
G1 X105.371 Y120.659 E5.03637
G1 E0.03637 F2700.00000
G92 E0
G1 X123.173 Y115.325 F9000.000
G1 X103.838 Y111.027 F9000.000
G1 E5.00000 F2700.00000
G1 F1500
G1 X101.951 Y108.574 E5.18008
G1 X101.180 Y107.512 E5.25646
G1 X100.523 Y106.558 E5.32385
G1 X99.966 Y105.701 E5.38338
G1 X99.679 Y105.220 E5.41598
G1 X99.951 Y104.714 E5.44939
G1 X100.295 Y103.993 E5.49588
G1 X100.589 Y103.311 E5.53913
G1 X100.841 Y102.653 E5.58010
G1 X101.054 Y102.016 E5.61919
G1 X101.234 Y101.381 E5.65759
G1 X101.485 Y100.191 E5.72840
G1 X101.574 Y100.191 E5.73360
G1 X101.620 Y98.420 E5.83669
G1 X101.605 Y97.834 E5.87082
G1 X101.559 Y97.245 E5.90516
G1 X101.481 Y96.653 E5.93994
G1 X101.372 Y96.053 E5.97539
G1 X101.230 Y95.445 E6.01177
G1 X101.054 Y94.824 E6.04934
G1 X100.841 Y94.186 E6.08844
G1 X100.589 Y93.529 E6.12941
G1 X100.295 Y92.846 E6.17266
G1 X99.951 Y92.125 E6.21915
G1 X99.679 Y91.620 E6.25255
G1 X99.966 Y91.139 E6.28516
G1 X100.523 Y90.281 E6.34468
G1 X101.180 Y89.327 E6.41207
G1 X101.951 Y88.265 E6.48845
G1 X104.015 Y85.582 E6.68546
G1 X118.274 Y102.693 E7.98163
G1 X118.652 Y103.172 E8.01713
G1 X118.994 Y103.654 E8.05157
G1 X119.311 Y104.156 E8.08607
G1 X119.600 Y104.671 E8.12044
G1 X119.862 Y105.201 E8.15488
G1 X120.097 Y105.745 E8.18931
G1 X120.302 Y106.300 E8.22375
G1 X120.478 Y106.864 E8.25819
G1 X120.624 Y107.438 E8.29262
G1 X120.740 Y108.018 E8.32706
G1 X120.826 Y108.604 E8.36150
G1 X120.880 Y109.193 E8.39593
G1 X120.904 Y109.784 E8.43037
G1 X120.897 Y110.376 E8.46481
G1 X120.859 Y110.966 E8.49924
G1 X120.790 Y111.554 E8.53368
G1 X120.690 Y112.137 E8.56812
G1 X120.560 Y112.715 E8.60255
G1 X120.425 Y113.196 E8.63164
G1 X102.105 Y113.196 E9.69776
G1 X103.675 Y111.232 E9.84405
G1 E4.84405 F2700.00000
G92 E0
G1 X104.080 Y113.696 F9000.000
G1 E5.00000 F2700.00000
G1 F1500
G1 X101.045 Y113.696 E5.17660
G1 X102.020 Y112.513 E5.26582
G1 X103.204 Y111.022 E5.37658
G1 X101.550 Y108.874 E5.53434
G1 X100.772 Y107.801 E5.61149
G1 X100.108 Y106.836 E5.67963
G1 X99.542 Y105.965 E5.74009
G1 X99.104 Y105.232 E5.78976
G1 X99.505 Y104.488 E5.83897
G1 X99.840 Y103.787 E5.88419
G1 X100.126 Y103.122 E5.92628
G1 X100.370 Y102.485 E5.96602
G1 X100.576 Y101.868 E6.00382
G1 X100.748 Y101.261 E6.04055
G1 X100.980 Y100.161 E6.10599
G1 X100.980 Y99.691 E6.13336
G1 X101.087 Y99.691 E6.13958
G1 X101.120 Y98.420 E6.21357
G1 X101.106 Y97.860 E6.24618
G1 X101.061 Y97.297 E6.27901
G1 X100.987 Y96.730 E6.31231
G1 X100.883 Y96.155 E6.34631
G1 X100.746 Y95.570 E6.38128
G1 X100.576 Y94.971 E6.41751
G1 X100.370 Y94.355 E6.45531
G1 X100.126 Y93.717 E6.49505
G1 X99.840 Y93.053 E6.53715
G1 X99.505 Y92.352 E6.58236
G1 X99.104 Y91.607 E6.63157
G1 X99.542 Y90.875 E6.68124
G1 X100.108 Y90.003 E6.74170
G1 X100.772 Y89.039 E6.80984
G1 X101.550 Y87.966 E6.88699
G1 X103.204 Y85.817 E7.04475
G1 X102.020 Y84.327 E7.15551
G1 X100.980 Y83.065 E7.25070
G1 X100.980 Y81.159 E7.36160
G1 X118.662 Y102.378 E8.96900
G1 X119.053 Y102.872 E9.00564
G1 X119.410 Y103.376 E9.04160
G1 X119.741 Y103.900 E9.07764
G1 X120.043 Y104.437 E9.11352
G1 X120.316 Y104.991 E9.14948
G1 X120.561 Y105.559 E9.18544
G1 X120.775 Y106.138 E9.22140
G1 X120.959 Y106.728 E9.25736
G1 X121.112 Y107.327 E9.29333
G1 X121.233 Y107.933 E9.32928
G1 X121.322 Y108.544 E9.36525
G1 X121.379 Y109.160 E9.40121
G1 X121.404 Y109.777 E9.43717
G1 X121.397 Y110.395 E9.47313
G1 X121.357 Y111.012 E9.50908
G1 X121.285 Y111.625 E9.54505
