; generated by PrusaSlicer 2.9.2 on 2025-08-11 at 09:31:23 UTC

; 

; external perimeters extrusion width = 0.45mm
; perimeters extrusion width = 0.45mm
; infill extrusion width = 0.45mm
; solid infill extrusion width = 0.45mm
; top infill extrusion width = 0.40mm
; support material extrusion width = 0.40mm
; first layer extrusion width = 0.70mm

M190 S60 ; set bed temperature and wait for it to be reached
M104 S210 ; set temperature
;TYPE:Custom
G28 ; home all axes
G1 Z5 F5000 ; lift nozzle
M109 S210 ; set temperature and wait for it to be reached
G21 ; set units to millimeters
G90 ; use absolute coordinates
M82 ; use absolute distances for extrusion
G92 E0
; Filament gcode
M107
;LAYER_CHANGE
;Z:0.35
;HEIGHT:0.35
G1 X71.929 Y48.296 F7800
G1 Z.35
;TYPE:Skirt/Brim
;WIDTH:0.7
G1 F1800
G1 X72.484 Y47.47 E.09049
G1 X86.662 Y30.456 E2.10431
G1 X89.883 Y27.198 E2.5209
G1 X91.721 Y25.921 E2.72441
G1 X94.347 Y25.349 E2.96879
G1 X105.653 Y25.349 E3.99684
G1 X107.856 Y25.746 E4.20038
G1 X110.117 Y27.198 E4.44472
G1 X113.338 Y30.456 E4.86131
G1 X127.516 Y47.47 E6.87513
G1 X133.591 Y56.516 E7.86595
G1 X134.482 Y58.569 E8.06945
G1 X134.651 Y60.018 E8.2021
G1 X134.651 Y79.831 E10.00369
G1 X134.254 Y82.034 E10.20723
G1 X132.802 Y84.295 E10.45157
G1 X124.295 Y92.802 E11.54552
G1 X122.457 Y94.079 E11.74903
G1 X119.831 Y94.651 E11.99341
G1 X80.169 Y94.651 E15.59986
G1 X77.966 Y94.254 E15.8034
G1 X75.705 Y92.802 E16.04774
G1 X67.198 Y84.295 E17.14169
G1 X65.921 Y82.457 E17.3452
G1 X65.349 Y79.831 E17.58958
G1 X65.349 Y60.018 E19.39117
G1 X65.746 Y57.815 E19.59471
G1 X66.409 Y56.516 E19.72732
G1 X71.896 Y48.346 E20.62221
G92 E0
G92 E0
G1 X103.524 Y79.291 F7800
;TYPE:Support material interface
;WIDTH:0.4
G1 F1800
G1 X103.524 Y78.816 E.02246
G1 X104.444 Y78.977 F7800
;TYPE:Support material
;WIDTH:0.7
G1 F1800
G1 X104.062 Y78.977 E.0572
G1 X104.062 Y78.614 E.09021
G1 X104.444 Y78.614 E.12495
G1 X104.444 Y78.883 E.14941
G92 E0
G1 X96.476 Y78.816 F7800
;TYPE:Support material interface
;WIDTH:0.4
G1 F1800
G1 X96.476 Y79.291 E.02246
G1 X95.938 Y78.977 F7800
;TYPE:Support material
;WIDTH:0.7
G1 F1800
G1 X95.556 Y78.977 E.0572
G1 X95.556 Y78.614 E.09021
G1 X95.938 Y78.614 E.12495
G1 X95.938 Y78.883 E.14941
G92 E0
G1 X85.304 Y78.977 F7800
G1 F1800
G1 X84.922 Y78.977 E.03474
G1 X84.922 Y78.614 E.06775
G1 X85.304 Y78.614 E.10249
G1 X85.304 Y78.883 E.12695
G1 X84.394 Y78.816 F7800
;TYPE:Support material interface
;WIDTH:0.4
G1 F1800
G1 X84.394 Y79.291 E.14941
G92 E0
G1 X79.024 Y77.165 F7800
G1 F1800
G1 X79.024 Y76.962 E.0096
G1 X78.688 Y76.388 E.04104
G1 X78.688 Y77.014 E.07063
G1 X78.353 Y77.014 E.08647
G1 X78.353 Y75.735 E.14694
G1 X78.017 Y74.973 E.18631
G1 X78.017 Y77.014 E.2828
G1 X77.681 Y77.014 E.29868
G1 X77.681 Y74.178 E.43275
G1 X77.437 Y74.178 E.44429
G1 X77.346 Y73.852 E.46029
G1 X77.346 Y77.165 E.61691
G92 E0
G1 X115.078 Y78.977 F7800
;TYPE:Support material
;WIDTH:0.7
G1 F1800
G1 X114.696 Y78.977 E.03474
G1 X114.696 Y78.614 E.06775
G1 X115.078 Y78.614 E.10249
G1 X115.078 Y78.883 E.12695
G1 X115.606 Y78.816 F7800
;TYPE:Support material interface
;WIDTH:0.4
G1 F1800
G1 X115.606 Y79.291 E.14941
G92 E0
G1 X120.976 Y77.165 F7800
G1 F1800
G1 X120.976 Y76.962 E.0096
G1 X121.312 Y76.388 E.04104
G1 X121.312 Y77.014 E.07063
G1 X121.647 Y77.014 E.08647
G1 X121.647 Y75.735 E.14694
G1 X121.983 Y74.973 E.18631
G1 X121.983 Y77.014 E.2828
G1 X122.319 Y77.014 E.29868
G1 X122.319 Y74.178 E.43275
G1 X122.563 Y74.178 E.44429
G1 X122.654 Y73.853 E.46025
G1 X122.654 Y77.165 E.61683
G92 E0
G1 X102.517 Y40.302 F7800
G1 F1800
G1 X102.517 Y37.315 E.14121
G1 X102.181 Y37.315 E.15709
G1 X102.181 Y40.151 E.29116
G1 X101.846 Y39.754 E.31572
G1 X101.846 Y37.315 E.43103
G1 X101.51 Y37.315 E.44691
G1 X101.51 Y39.352 E.54321
G1 X101.175 Y38.949 E.56799
G1 X101.175 Y37.315 E.64524
G1 X100.839 Y37.315 E.66112
G1 X100.839 Y38.546 E.71932
G1 X100.503 Y38.153 E.74376
G1 X100.503 Y37.315 E.78338
G1 X100.168 Y37.315 E.79922
G1 X100.168 Y37.92 E.82782
G1 X100 Y37.983 E.8363
G1 X99.832 Y37.92 E.84478
G1 X99.832 Y37.315 E.87338
G1 X99.497 Y37.315 E.88922
G1 X99.497 Y38.153 E.92884
G1 X99.161 Y38.546 E.95328
G1 X99.161 Y37.315 E1.01148
G1 X98.825 Y37.315 E1.02736
G1 X98.825 Y38.949 E1.10461
G1 X98.49 Y39.352 E1.12939
G1 X98.49 Y37.315 E1.22569
G1 X98.154 Y37.315 E1.24157
G1 X98.154 Y39.755 E1.35692
G1 X97.824 Y40.151 E1.38129
G1 X97.818 Y37.315 E1.51536
G1 X97.483 Y37.315 E1.5312
G1 X97.483 Y40.302 E1.67241
G92 E0
G1 X105.653 Y34.497 F7800
;TYPE:Support material
;WIDTH:0.7
G1 F1800
G1 X108.489 Y34.497 E.25788
G1 X108.489 Y40.169 E.77363
G1 X111.325 Y40.169 E1.03151
G1 X111.325 Y43.004 E1.2893
G1 X114.16 Y43.004 E1.54709
G1 X114.16 Y45.84 E1.80497
G1 X116.996 Y45.84 E2.06285
G1 X116.996 Y48.675 E2.32064
G1 X119.831 Y48.675 E2.57843
G1 X119.831 Y51.511 E2.83631
G1 X122.667 Y51.511 E3.09419
G1 X122.667 Y57.182 E3.60985
G1 X125.503 Y57.182 E3.86773
G1 X125.503 Y60.018 E4.12561
G1 X128.338 Y60.018 E4.3834
G1 X128.338 Y79.831 E6.18499
G1 X125.503 Y79.831 E6.44278
G1 X125.503 Y82.667 E6.70066
G1 X122.667 Y82.667 E6.95854
G1 X122.667 Y85.503 E7.21642
G1 X119.831 Y85.503 E7.4743
G1 X119.831 Y88.338 E7.73209
G1 X80.169 Y88.338 E11.33854
G1 X80.169 Y85.503 E11.59633
G1 X77.333 Y85.503 E11.85421
G1 X77.333 Y82.667 E12.11209
G1 X74.497 Y82.667 E12.36997
G1 X74.497 Y79.831 E12.62785
G1 X71.662 Y79.831 E12.88564
G1 X71.662 Y60.018 E14.68723
G1 X74.497 Y60.018 E14.94502
G1 X74.497 Y57.182 E15.2029
G1 X77.333 Y57.182 E15.46078
G1 X77.333 Y51.511 E15.97644
G1 X80.169 Y51.511 E16.23432
G1 X80.169 Y48.675 E16.4922
G1 X83.004 Y48.675 E16.74999
G1 X83.004 Y45.84 E17.00778
G1 X85.84 Y45.84 E17.26566
G1 X85.84 Y43.004 E17.52354
G1 X88.675 Y43.004 E17.78133
G1 X88.675 Y40.169 E18.03912
G1 X91.511 Y40.169 E18.297
G1 X91.511 Y34.497 E18.81275
G1 X94.347 Y34.497 E19.07063
G1 X94.347 Y31.662 E19.32842
G1 X105.653 Y31.662 E20.35647
G1 X105.653 Y34.404 E20.6058
G92 E0
G1 X96.646 Y40.669 F7800
G1 F1800
G1 X96.646 Y36.797 E.35208
G1 X103.354 Y36.797 E.96204
G1 X103.354 Y40.669 E1.31412
G1 X102.443 Y40.669 E1.39696
G1 X119.782 Y61.475 E3.85968
G1 X120.972 Y63.155 E4.04688
G1 X121.619 Y64.381 E4.17293
G1 X122.341 Y66.329 E4.36184
G1 X122.75 Y68.367 E4.55085
G1 X122.834 Y70.443 E4.73977
G1 X122.638 Y72.242 E4.90432
G1 X123.203 Y72.242 E4.9557
G1 X123.203 Y77.532 E5.43672
G1 X120.452 Y77.532 E5.68687
G1 X119.091 Y79.179 E5.88115
G1 X118.074 Y80.12 E6.00714
G1 X116.964 Y80.95 E6.13317
G1 X115.773 Y81.659 E6.2592
G1 X114.514 Y82.239 E6.38524
G1 X113.202 Y82.686 E6.51127
G1 X111.85 Y82.992 E6.63732
G1 X110.474 Y83.155 E6.76331
G1 X108.411 Y83.13 E6.95091
G1 X107.04 Y82.934 E7.07684
G1 X105.681 Y82.59 E7.20431
G1 X104.172 Y82.015 E7.35115
G1 X102.554 Y81.152 E7.51789
G1 X101.41 Y80.345 E7.64519
G1 X100 Y79.055 E7.81896
G1 X99.112 Y79.912 E7.93118
G1 X98.023 Y80.768 E8.05713
G1 X96.849 Y81.506 E8.18322
G1 X95.605 Y82.117 E8.30924
G1 X94.304 Y82.595 E8.43527
G1 X92.975 Y82.931 E8.55992
G1 X91.604 Y83.129 E8.68588
G1 X90.219 Y83.183 E8.81191
G1 X88.836 Y83.092 E8.93794
G1 X87.455 Y82.853 E9.06538
G1 X85.486 Y82.239 E9.25292
G1 X84.214 Y81.652 E9.3803
G1 X83.024 Y80.941 E9.50635
G1 X81.405 Y79.663 E9.6939
G1 X80.429 Y78.658 E9.82129
G1 X79.548 Y77.532 E9.95129
G1 X76.797 Y77.532 E10.20144
G1 X76.797 Y72.242 E10.68246
G1 X77.362 Y72.242 E10.73384
G1 X77.166 Y70.443 E10.89839
G1 X77.25 Y68.367 E11.08731
G1 X77.487 Y67.001 E11.21338
G1 X77.861 Y65.682 E11.33804
G1 X78.689 Y63.76 E11.52833
G1 X79.399 Y62.57 E11.65433
G1 X80.223 Y61.469 E11.77938
G1 X97.557 Y40.669 E14.24139
G1 X96.74 Y40.669 E14.31568
G92 E0
G1 X127.773 Y79.55 F7800
G1 F1800
G1 X127.773 Y60.58 E1.72493
G1 X127.079 Y60.58 E1.78804
G1 X127.079 Y79.269 E3.48742
G1 X126.384 Y79.269 E3.55062
G1 X126.384 Y60.58 E5.25
G1 X125.69 Y60.58 E5.31311
G1 X125.69 Y79.269 E7.01249
G1 X124.996 Y79.269 E7.0756
G1 X124.94 Y57.745 E9.03277
G1 X124.301 Y57.745 E9.09087
G1 X124.301 Y82.105 E11.30591
G1 X123.607 Y82.105 E11.36902
G1 X123.607 Y57.745 E13.58406
G1 X122.913 Y57.745 E13.64717
G1 X122.913 Y66.293 E14.42444
G1 X122.218 Y64.35 E14.61208
G1 X122.218 Y57.745 E15.21267
G1 X122.105 Y57.745 E15.22295
G1 X122.105 Y52.073 E15.7387
G1 X121.524 Y52.073 E15.79153
G1 X121.524 Y62.989 E16.78412
G1 X120.83 Y61.92 E16.90001
G1 X120.83 Y52.073 E17.79539
G1 X120.135 Y52.073 E17.85859
G1 X120.135 Y61.02 E18.67214
G1 X119.441 Y60.187 E18.77073
G1 X119.441 Y52.073 E19.50853
G1 X119.269 Y52.073 E19.52417
G1 X119.269 Y49.238 E19.78196
G1 X118.747 Y49.238 E19.82943
G1 X118.747 Y59.354 E20.74927
G1 X118.052 Y58.521 E20.84792
G1 X118.052 Y49.238 E21.69202
G1 X117.358 Y49.238 E21.75513
G1 X117.358 Y57.688 E22.52348
G1 X116.664 Y56.854 E22.62214
G1 X116.664 Y49.238 E23.31466
G1 X116.433 Y49.238 E23.33566
G1 X116.433 Y46.402 E23.59354
G1 X115.969 Y46.402 E23.63573
G1 X115.969 Y56.021 E24.51038
G1 X115.275 Y55.188 E24.60897
G1 X115.275 Y46.402 E25.40788
G1 X114.581 Y46.402 E25.47099
G1 X114.581 Y54.355 E26.19415
G1 X113.886 Y53.522 E26.2928
G1 X113.886 Y46.402 E26.94022
G1 X113.598 Y46.402 E26.96641
G1 X113.598 Y43.567 E27.2242
G1 X113.192 Y43.567 E27.26112
G1 X113.192 Y52.689 E28.09058
G1 X112.498 Y51.855 E28.18924
G1 X112.498 Y43.567 E28.94286
G1 X111.803 Y43.567 E29.00606
G1 X111.803 Y51.022 E29.68394
G1 X111.109 Y50.189 E29.78253
G1 X111.109 Y43.567 E30.38467
G1 X110.762 Y43.567 E30.41622
G1 X110.762 Y40.731 E30.6741
G1 X110.415 Y40.731 E30.70565
G1 X110.415 Y49.356 E31.48992
G1 X109.72 Y48.523 E31.58857
G1 X109.72 Y40.731 E32.29709
G1 X109.026 Y40.731 E32.3602
G1 X109.026 Y47.689 E32.99289
G1 X108.332 Y46.856 E33.09148
G1 X108.332 Y40.731 E33.64842
G1 X107.927 Y40.731 E33.68525
G1 X107.927 Y35.06 E34.20091
G1 X107.638 Y35.06 E34.22719
G1 X107.638 Y46.023 E35.22405
G1 X106.943 Y45.19 E35.3227
G1 X106.943 Y35.06 E36.24382
G1 X106.249 Y35.06 E36.30693
G1 X106.249 Y44.357 E37.1523
G1 X105.555 Y43.524 E37.25089
G1 X105.555 Y35.06 E38.02052
G1 X105.091 Y35.06 E38.06271
G1 X105.091 Y32.224 E38.32059
G1 X104.86 Y32.224 E38.34159
G1 X104.86 Y42.69 E39.29326
G1 X104.166 Y41.857 E39.39185
G1 X104.166 Y32.224 E40.26777
G1 X103.472 Y32.224 E40.33088
G1 X103.472 Y36.235 E40.6956
G1 X102.777 Y36.235 E40.7588
G1 X102.777 Y32.224 E41.12352
G1 X102.083 Y32.224 E41.18663
G1 X102.083 Y36.235 E41.55135
G1 X101.389 Y36.235 E41.61446
G1 X101.389 Y32.224 E41.97918
G1 X100.694 Y32.224 E42.04238
G1 X100.694 Y36.235 E42.4071
G1 X100 Y36.235 E42.47021
G1 X100 Y32.224 E42.83493
G1 X99.306 Y32.224 E42.89804
G1 X99.306 Y36.235 E43.26276
G1 X98.611 Y36.235 E43.32596
G1 X98.611 Y32.224 E43.69068
G1 X97.917 Y32.224 E43.75379
G1 X97.917 Y36.235 E44.11851
G1 X97.223 Y36.235 E44.18162
G1 X97.223 Y32.224 E44.54634
G1 X96.528 Y32.224 E44.60954
G1 X96.528 Y36.235 E44.97426
G1 X96.084 Y36.235 E45.01463
G1 X96.084 Y41.231 E45.46891
G1 X96.356 Y41.231 E45.49364
G1 X95.834 Y41.857 E45.56776
G1 X95.834 Y32.224 E46.44368
G1 X95.14 Y32.224 E46.50679
G1 X95.14 Y42.69 E47.45846
G1 X94.445 Y43.524 E47.55718
G1 X94.445 Y35.06 E48.32681
G1 X93.751 Y35.06 E48.38992
G1 X93.751 Y44.357 E49.23529
G1 X93.057 Y45.19 E49.33388
G1 X93.057 Y35.06 E50.255
G1 X92.362 Y35.06 E50.3182
G1 X92.362 Y46.023 E51.31506
G1 X91.668 Y46.856 E51.41365
G1 X91.668 Y40.731 E51.97059
G1 X90.974 Y40.731 E52.0337
G1 X90.974 Y47.689 E52.66639
G1 X90.28 Y48.523 E52.76505
G1 X90.28 Y40.731 E53.47357
G1 X89.585 Y40.731 E53.53677
G1 X89.585 Y49.356 E54.32104
G1 X88.891 Y50.189 E54.41963
G1 X88.891 Y43.567 E55.02177
G1 X88.197 Y43.567 E55.08488
G1 X88.197 Y51.022 E55.76276
G1 X87.502 Y51.855 E55.86141
G1 X87.502 Y43.567 E56.61503
G1 X86.808 Y43.567 E56.67814
G1 X86.808 Y52.689 E57.5076
G1 X86.114 Y53.522 E57.60619
G1 X86.114 Y46.402 E58.25361
G1 X85.419 Y46.402 E58.31681
G1 X85.419 Y54.355 E59.03997
G1 X84.725 Y55.188 E59.13856
G1 X84.725 Y46.402 E59.93747
G1 X84.031 Y46.402 E60.00058
G1 X84.031 Y56.021 E60.87523
G1 X83.336 Y56.855 E60.97395
G1 X83.336 Y49.238 E61.66656
G1 X82.642 Y49.238 E61.72967
G1 X82.642 Y57.688 E62.49802
G1 X81.948 Y58.521 E62.59661
G1 X81.948 Y49.238 E63.44071
G1 X81.253 Y49.238 E63.50391
G1 X81.253 Y59.354 E64.42375
G1 X80.559 Y60.187 E64.52234
G1 X80.559 Y52.073 E65.26014
G1 X79.865 Y52.073 E65.32325
G1 X79.865 Y61.02 E66.1368
G1 X79.17 Y61.92 E66.2402
G1 X79.17 Y52.073 E67.13558
G1 X78.476 Y52.073 E67.19869
G1 X78.476 Y62.989 E68.19128
G1 X77.782 Y64.35 E68.3302
G1 X77.782 Y57.745 E68.93079
G1 X77.087 Y57.745 E68.99399
G1 X77.087 Y67.564 E69.88683
G92 E0
G1 X122.913 Y82.386 F7800
G1 F1800
G1 X122.913 Y78.094 E.39027
G1 X122.218 Y78.094 E.45347
G1 X122.218 Y82.105 E.81819
G1 X122.105 Y82.105 E.82847
G1 X122.105 Y84.94 E1.08626
G1 X121.524 Y84.94 E1.13909
G1 X121.524 Y78.094 E1.76159
G1 X120.83 Y78.094 E1.8247
G1 X120.83 Y84.94 E2.4472
G1 X120.135 Y84.94 E2.5104
G1 X120.135 Y78.859 E3.06334
G1 X119.441 Y79.623 E3.15719
G1 X119.441 Y84.94 E3.64066
G1 X119.269 Y84.94 E3.6563
G1 X119.269 Y87.776 E3.91418
G1 X118.747 Y87.776 E3.96165
G1 X118.747 Y80.278 E4.64344
G1 X118.052 Y80.854 E4.72552
G1 X118.052 Y87.776 E5.35493
G1 X117.358 Y87.776 E5.41804
G1 X117.358 Y81.36 E6.00144
G1 X116.664 Y81.804 E6.07635
G1 X116.664 Y87.776 E6.61938
G1 X115.969 Y87.776 E6.68258
G1 X115.969 Y82.189 E7.1906
G1 X115.275 Y82.525 E7.26071
G1 X115.275 Y87.776 E7.73818
G1 X114.581 Y87.776 E7.80129
G1 X114.581 Y82.815 E8.25239
G1 X113.886 Y83.062 E8.31946
G1 X113.886 Y87.776 E8.7481
G1 X113.192 Y87.776 E8.81121
G1 X113.192 Y83.268 E9.22112
G1 X112.498 Y83.436 E9.28605
G1 X112.498 Y87.776 E9.68068
G1 X111.803 Y87.776 E9.74388
G1 X111.803 Y83.567 E10.1266
G1 X111.109 Y83.662 E10.19029
G1 X111.109 Y87.776 E10.56437
G1 X110.415 Y87.776 E10.62748
G1 X110.415 Y83.721 E10.9962
G1 X109.72 Y83.745 E11.05943
G1 X109.72 Y87.776 E11.42597
G1 X109.026 Y87.776 E11.48908
G1 X109.026 Y83.734 E11.85662
G1 X108.332 Y83.688 E11.91986
G1 X108.332 Y87.776 E12.29158
G1 X107.638 Y87.776 E12.35469
G1 X107.638 Y83.606 E12.73387
G1 X106.943 Y83.488 E12.79797
G1 X106.943 Y87.776 E13.18788
G1 X106.249 Y87.776 E13.25099
G1 X106.249 Y83.332 E13.65508
G1 X105.555 Y83.139 E13.72058
G1 X105.555 Y87.776 E14.14222
G1 X104.86 Y87.776 E14.20542
G1 X104.86 Y82.906 E14.64825
G1 X104.166 Y82.631 E14.71613
G1 X104.166 Y87.776 E15.18396
G1 X103.472 Y87.776 E15.24707
G1 X103.472 Y82.309 E15.74418
G1 X102.777 Y81.939 E15.81577
G1 X102.777 Y87.776 E16.34653
G1 X102.083 Y87.776 E16.40964
G1 X102.083 Y81.514 E16.97904
G1 X101.389 Y81.031 E17.05592
G1 X101.389 Y87.776 E17.66924
G1 X100.694 Y87.776 E17.73244
G1 X100.694 Y80.482 E18.39568
G1 X100 Y79.858 E18.48054
G1 X100 Y87.776 E19.20052
G1 X99.306 Y87.776 E19.26363
G1 X99.306 Y80.482 E19.92687
G1 X98.611 Y81.031 E20.0074
G1 X98.611 Y87.776 E20.62072
G1 X97.917 Y87.776 E20.68383
G1 X97.917 Y81.514 E21.25323
G1 X97.223 Y81.939 E21.32723
G1 X97.223 Y87.776 E21.85799
G1 X96.528 Y87.776 E21.92119
G1 X96.528 Y82.309 E22.4183
G1 X95.834 Y82.631 E22.48787
G1 X95.834 Y87.776 E22.9557
G1 X95.14 Y87.776 E23.01881
G1 X95.14 Y82.906 E23.46164
G1 X94.445 Y83.139 E23.52829
G1 X94.445 Y87.776 E23.94993
G1 X93.751 Y87.776 E24.01304
G1 X93.751 Y83.332 E24.41713
G1 X93.057 Y83.488 E24.48181
G1 X93.057 Y87.776 E24.87172
G1 X92.362 Y87.776 E24.93492
G1 X92.362 Y83.606 E25.3141
G1 X91.668 Y83.688 E25.37764
G1 X91.668 Y87.776 E25.74936
G1 X90.974 Y87.776 E25.81247
G1 X90.974 Y83.734 E26.18001
G1 X90.28 Y83.745 E26.24312
G1 X90.28 Y87.776 E26.60966
G1 X89.585 Y87.776 E26.67286
G1 X89.585 Y83.721 E27.04158
G1 X88.891 Y83.662 E27.10491
G1 X88.891 Y87.776 E27.47899
G1 X88.197 Y87.776 E27.5421
G1 X88.197 Y83.567 E27.92482
G1 X87.502 Y83.436 E27.98913
G1 X87.502 Y87.776 E28.38376
G1 X86.808 Y87.776 E28.44687
G1 X86.808 Y83.268 E28.85678
G1 X86.114 Y83.062 E28.92261
G1 X86.114 Y87.776 E29.35125
G1 X85.419 Y87.776 E29.41445
G1 X85.419 Y82.815 E29.86555
G1 X84.725 Y82.525 E29.93394
G1 X84.725 Y87.776 E30.41141
G1 X84.031 Y87.776 E30.47452
G1 X84.031 Y82.189 E30.98254
G1 X83.336 Y81.804 E31.05478
G1 X83.336 Y87.776 E31.59781
G1 X82.642 Y87.776 E31.66092
G1 X82.642 Y81.36 E32.24432
G1 X81.948 Y80.854 E32.32242
G1 X81.948 Y87.776 E32.95183
G1 X81.253 Y87.776 E33.01503
