; generated by PrusaSlicer 2.9.2 on 2025-08-16 at 07:49:17 UTC

; 

; external perimeters extrusion width = 0.45mm
; perimeters extrusion width = 0.45mm
; infill extrusion width = 0.45mm
; solid infill extrusion width = 0.45mm
; top infill extrusion width = 0.40mm
; first layer extrusion width = 0.70mm

M190 S60 ; set bed temperature and wait for it to be reached
M104 S210 ; set temperature
;TYPE:Custom
G28 ; home all axes
G1 Z5 F5000 ; lift nozzle
M109 S210 ; set temperature and wait for it to be reached
G21 ; set units to millimeters
G90 ; use absolute coordinates
M82 ; use absolute distances for extrusion
G92 E0
; Filament gcode
M107
;LAYER_CHANGE
;Z:0.35
;HEIGHT:0.35
G1 E-.2 F2400
G92 E0
G1 Z.75 F7800
G1 X84.084 Y47.797
G1 Z.35
G1 E.2 F1800
;TYPE:Skirt/Brim
;WIDTH:0.7
G1 X85.225 Y45.871 E.40356
G1 X86.966 Y44.465 E.60705
G1 X90 Y43.688 E.89183
G1 X110 Y43.688 E2.71042
G1 X112.203 Y44.084 E2.91395
G1 X114.129 Y45.225 E3.11751
G1 X115.535 Y46.966 E3.321
G1 X116.312 Y50 E3.60578
G1 X116.312 Y70 E5.42437
G1 X115.916 Y72.203 E5.6279
G1 X114.775 Y74.129 E5.83146
G1 X113.034 Y75.535 E6.03495
G1 X110 Y76.312 E6.31973
G1 X90 Y76.312 E8.13832
G1 X87.797 Y75.916 E8.34185
G1 X85.871 Y74.775 E8.54541
G1 X84.465 Y73.034 E8.7489
G1 X83.688 Y70 E9.03368
G1 X83.688 Y50 E10.85227
G1 X84.07 Y47.876 E11.0485
;WIPE_START
G1 F6240
G1 X84.084 Y47.797 E11.01918
G1 X84.322 Y47.395 E10.8485
;WIPE_END
G92 E0
G1 Z.75 F7800
G92 E0
G1 X91.6 Y51.6
G1 Z.35
G1 E.2 F1800
;TYPE:Perimeter
;WIDTH:0.7
G1 X108.4 Y51.6 E1.72762
G1 X108.4 Y60 E2.49143
G1 X108.4 Y68.4 E3.25524
G1 X91.6 Y68.4 E4.78286
G1 X91.6 Y51.68 E6.3032
G1 X90.975 Y50.975 F7800
G1 F1800
G1 X109.025 Y50.975 E7.94448
G1 X109.025 Y60 E8.76512
G1 X109.025 Y69.025 E9.58576
G1 X90.975 Y69.025 E11.22704
G1 X90.975 Y51.055 E12.86104
G1 X90.35 Y50.35 F7800
;TYPE:External perimeter
G1 F1800
G1 X109.65 Y50.35 E14.61598
G1 X109.65 Y60 E15.49345
G1 X109.65 Y69.65 E16.37092
G1 X90.35 Y69.65 E18.12586
G1 X90.35 Y50.43 E19.87353
;WIPE_START
G1 F6240
G1 X90.35 Y50.35 E19.8443
G1 X90.817 Y50.35 E19.67353
;WIPE_END
G92 E0
G1 Z.75 F7800
G1 X108.213 Y53.062
G1 Z.35
G1 E.2 F1800
;TYPE:Solid infill
;WIDTH:0.705315
G1 X107.22 Y52.068 E.32884
G1 X106.328 Y52.068 E.41064
G1 X107.932 Y53.672 E.61866
G1 X107.932 Y54.563 E.70037
G1 X105.437 Y52.068 E1.02394
G1 X104.546 Y52.068 E1.10565
G1 X107.932 Y55.454 E1.54477
G1 X107.932 Y56.345 E1.62648
G1 X103.655 Y52.068 E2.18115
G1 X102.763 Y52.068 E2.26295
G1 X107.932 Y57.237 E2.9333
G1 X107.932 Y58.128 E3.01501
G1 X101.872 Y52.068 E3.80092
G1 X100.981 Y52.068 E3.88263
G1 X107.932 Y59.019 E4.78409
G1 X107.932 Y59.91 E4.8658
G1 X100.09 Y52.068 E5.88281
G1 X99.198 Y52.068 E5.96461
G1 X107.932 Y60.802 E7.0973
G1 X107.932 Y61.693 E7.17901
G1 X98.307 Y52.068 E8.42725
G1 X97.416 Y52.068 E8.50896
G1 X107.932 Y62.584 E9.87275
G1 X107.932 Y63.475 E9.95446
G1 X96.525 Y52.068 E11.43381
G1 X95.633 Y52.068 E11.51561
G1 X107.932 Y64.367 E13.11064
G1 X107.932 Y65.258 E13.19235
G1 X94.742 Y52.068 E14.90293
G1 X93.851 Y52.068 E14.98464
G1 X107.932 Y66.149 E16.81077
G1 X107.932 Y67.04 E16.89248
G1 X92.96 Y52.068 E18.83416
G1 X92.068 Y52.068 E18.91596
G1 X107.931 Y67.932 E20.97326
G1 X107.04 Y67.932 E21.05497
G1 X92.068 Y52.96 E22.99665
G1 X92.068 Y53.851 E23.07836
G1 X106.149 Y67.932 E24.90449
G1 X105.258 Y67.932 E24.9862
G1 X92.068 Y54.742 E26.69678
G1 X92.068 Y55.633 E26.77849
G1 X104.367 Y67.932 E28.37352
G1 X103.475 Y67.932 E28.45532
G1 X92.068 Y56.525 E29.93467
G1 X92.068 Y57.416 E30.01638
G1 X102.584 Y67.932 E31.38017
G1 X101.693 Y67.932 E31.46188
G1 X92.068 Y58.307 E32.71012
G1 X92.068 Y59.198 E32.79183
G1 X100.802 Y67.932 E33.92452
G1 X99.91 Y67.932 E34.00632
G1 X92.068 Y60.09 E35.02333
G1 X92.068 Y60.981 E35.10504
G1 X99.019 Y67.932 E36.0065
G1 X98.128 Y67.932 E36.08821
G1 X92.068 Y61.872 E36.87412
G1 X92.068 Y62.763 E36.95583
G1 X97.237 Y67.932 E37.62618
G1 X96.345 Y67.932 E37.70798
G1 X92.068 Y63.655 E38.26265
G1 X92.068 Y64.546 E38.34436
G1 X95.454 Y67.932 E38.78348
G1 X94.563 Y67.932 E38.86519
G1 X92.068 Y65.437 E39.18876
G1 X92.068 Y66.328 E39.27047
G1 X93.672 Y67.932 E39.47849
G1 X92.78 Y67.932 E39.56029
G1 X91.787 Y66.938 E39.68913
;LAYER_CHANGE
;Z:0.65
;HEIGHT:0.3
;WIPE_START
G1 F6240
G1 X92.174 Y67.325 E39.48913
;WIPE_END
G92 E0
G1 Z.65 F7800
M104 S205 ; set temperature
G1 X90.996 Y69.004
G1 E.2 F1800
;TYPE:Perimeter
;WIDTH:0.45
G1 F3600
G1 X90.996 Y50.996 E1.06612
G1 X109.004 Y50.996 E1.93224
G1 X109.004 Y60 E2.3653
G1 X109.004 Y69.004 E2.79836
G1 X91.076 Y69.004 E3.66063
G1 X90.611 Y69.389 F7800
G1 F3600
G1 X90.611 Y50.611 E4.56379
G1 X109.389 Y50.611 E5.46695
G1 X109.389 Y60 E5.91853
G1 X109.389 Y69.389 E6.37011
G1 X90.691 Y69.389 E7.26942
G1 X90.225 Y69.775 F7800
;TYPE:External perimeter
G1 F1800
G1 X90.225 Y50.225 E8.20971
G1 X109.775 Y50.225 E9.15
G1 X109.775 Y60 E9.62014
G1 X109.775 Y69.775 E10.09028
G1 X90.305 Y69.775 E11.02672
;WIPE_START
G1 F6240
G1 X90.225 Y69.775 E10.99749
G1 X90.225 Y69.308 E10.82672
;WIPE_END
G92 E0
G1 Z1.05 F7800
G1 X108.891 Y68.211
G1 Z.65
G1 E.2 F1800
;TYPE:Top solid infill
;WIDTH:0.400298
G1 F900
G1 X108.363 Y68.74 E.23131
G1 X107.887 Y68.74 E.25125
G1 X108.74 Y67.887 E.30179
G1 X108.74 Y67.412 E.32169
G1 X107.412 Y68.74 E.40038
G1 X106.937 Y68.74 E.42028
G1 X108.74 Y66.937 E.52711
G1 X108.74 Y66.462 E.54701
G1 X106.462 Y68.74 E.68199
G1 X105.987 Y68.74 E.70189
G1 X108.74 Y65.987 E.86501
G1 X108.74 Y65.512 E.88491
G1 X105.512 Y68.74 E1.07618
G1 X105.037 Y68.74 E1.09608
G1 X108.74 Y65.037 E1.31549
G1 X108.74 Y64.562 E1.33539
G1 X104.562 Y68.74 E1.58294
G1 X104.087 Y68.74 E1.60284
G1 X108.74 Y64.087 E1.87854
G1 X108.74 Y63.612 E1.89844
G1 X103.612 Y68.74 E2.20228
G1 X103.137 Y68.74 E2.22218
G1 X108.74 Y63.137 E2.55417
G1 X108.74 Y62.662 E2.57407
G1 X102.662 Y68.74 E2.9342
G1 X102.187 Y68.74 E2.9541
G1 X108.74 Y62.187 E3.34238
G1 X108.74 Y61.712 E3.36228
G1 X101.712 Y68.74 E3.7787
G1 X101.237 Y68.74 E3.7986
G1 X108.74 Y61.237 E4.24317
G1 X108.74 Y60.762 E4.26307
G1 X100.762 Y68.74 E4.73578
G1 X100.287 Y68.74 E4.75568
G1 X108.74 Y60.287 E5.25654
G1 X108.74 Y59.811 E5.27648
G1 X99.811 Y68.74 E5.80554
G1 X99.336 Y68.74 E5.82544
G1 X108.74 Y59.336 E6.38264
G1 X108.74 Y58.861 E6.40254
G1 X98.861 Y68.74 E6.98789
G1 X98.386 Y68.74 E7.00779
G1 X108.74 Y58.386 E7.62128
G1 X108.74 Y57.911 E7.64118
G1 X97.911 Y68.74 E8.28282
G1 X97.436 Y68.74 E8.30272
G1 X108.74 Y57.436 E8.9725
G1 X108.74 Y56.961 E8.9924
G1 X96.961 Y68.74 E9.69033
G1 X96.486 Y68.74 E9.71023
G1 X108.74 Y56.486 E10.4363
G1 X108.74 Y56.011 E10.4562
G1 X96.011 Y68.74 E11.21042
G1 X95.536 Y68.74 E11.23032
G1 X108.74 Y55.536 E12.01268
G1 X108.74 Y55.061 E12.03258
G1 X95.061 Y68.74 E12.84309
G1 X94.586 Y68.74 E12.86299
G1 X108.74 Y54.586 E13.70164
G1 X108.74 Y54.111 E13.72154
G1 X94.111 Y68.74 E14.58834
G1 X93.636 Y68.74 E14.60824
G1 X108.74 Y53.636 E15.50318
G1 X108.74 Y53.161 E15.52308
G1 X93.161 Y68.74 E16.44617
G1 X92.686 Y68.74 E16.46607
G1 X108.74 Y52.686 E17.4173
G1 X108.74 Y52.211 E17.4372
G1 X92.211 Y68.74 E18.41657
G1 X91.735 Y68.74 E18.43651
G1 X108.74 Y51.735 E19.44409
G1 X108.74 Y51.26 E19.46399
G1 X91.26 Y68.739 E20.49968
G1 X91.26 Y68.264 E20.51958
G1 X108.264 Y51.26 E21.5271
G1 X107.789 Y51.26 E21.547
G1 X91.26 Y67.789 E22.52637
G1 X91.26 Y67.314 E22.54627
G1 X107.314 Y51.26 E23.4975
G1 X106.839 Y51.26 E23.5174
G1 X91.26 Y66.839 E24.44049
G1 X91.26 Y66.364 E24.46039
G1 X106.364 Y51.26 E25.35533
G1 X105.889 Y51.26 E25.37523
G1 X91.26 Y65.889 E26.24203
G1 X91.26 Y65.414 E26.26193
G1 X105.414 Y51.26 E27.10058
G1 X104.939 Y51.26 E27.12048
G1 X91.26 Y64.939 E27.93099
G1 X91.26 Y64.464 E27.95089
G1 X104.464 Y51.26 E28.73325
G1 X103.989 Y51.26 E28.75315
G1 X91.26 Y63.989 E29.50737
G1 X91.26 Y63.514 E29.52727
G1 X103.514 Y51.26 E30.25334
G1 X103.039 Y51.26 E30.27324
G1 X91.26 Y63.039 E30.97117
G1 X91.26 Y62.564 E30.99107
G1 X102.564 Y51.26 E31.66085
G1 X102.089 Y51.26 E31.68075
G1 X91.26 Y62.089 E32.32239
G1 X91.26 Y61.614 E32.34229
G1 X101.614 Y51.26 E32.95578
G1 X101.139 Y51.26 E32.97568
G1 X91.26 Y61.139 E33.56103
G1 X91.26 Y60.664 E33.58093
G1 X100.664 Y51.26 E34.13813
G1 X100.188 Y51.26 E34.15807
G1 X91.26 Y60.188 E34.68707
G1 X91.26 Y59.713 E34.70697
G1 X99.713 Y51.26 E35.20783
G1 X99.238 Y51.26 E35.22773
G1 X91.26 Y59.238 E35.70044
G1 X91.26 Y58.763 E35.72034
G1 X98.763 Y51.26 E36.16491
G1 X98.288 Y51.26 E36.18481
G1 X91.26 Y58.288 E36.60123
G1 X91.26 Y57.813 E36.62113
G1 X97.813 Y51.26 E37.00941
G1 X97.338 Y51.26 E37.02931
G1 X91.26 Y57.338 E37.38944
G1 X91.26 Y56.863 E37.40934
G1 X96.863 Y51.26 E37.74133
G1 X96.388 Y51.26 E37.76123
G1 X91.26 Y56.388 E38.06507
G1 X91.26 Y55.913 E38.08497
G1 X95.913 Y51.26 E38.36067
G1 X95.438 Y51.26 E38.38057
G1 X91.26 Y55.438 E38.62812
G1 X91.26 Y54.963 E38.64802
G1 X94.963 Y51.26 E38.86743
G1 X94.488 Y51.26 E38.88733
G1 X91.26 Y54.488 E39.0786
G1 X91.26 Y54.013 E39.0985
G1 X94.013 Y51.26 E39.26162
G1 X93.538 Y51.26 E39.28152
G1 X91.26 Y53.538 E39.4165
G1 X91.26 Y53.063 E39.4364
G1 X93.063 Y51.26 E39.54323
G1 X92.588 Y51.26 E39.56313
G1 X91.26 Y52.588 E39.64182
G1 X91.26 Y52.112 E39.66176
G1 X92.112 Y51.26 E39.71224
G1 X91.637 Y51.26 E39.73214
G1 X91.109 Y51.788 E39.76343
;LAYER_CHANGE
;Z:0.95
;HEIGHT:0.3
;WIPE_START
G1 F6240
G1 X91.496 Y51.401 E39.56343
;WIPE_END
G92 E0
G1 Z.95 F7800
G1 X90.21 Y69.79
G1 E.2 F1800
;TYPE:External perimeter
;WIDTH:0.420003
G1 F725
G1 X90.21 Y50.388 E1.06058
;WIDTH:0.450508
G1 X90.225 Y50.314 E1.06422
;WIDTH:0.481013
G1 X90.241 Y50.241 E1.0681
G1 X90.314 Y50.225 E1.07198
;WIDTH:0.450506
G1 X90.388 Y50.21 E1.07562
;WIDTH:0.419999
G1 X109.612 Y50.21 E1.92829
;WIDTH:0.450506
G1 X109.686 Y50.225 E1.93193
;WIDTH:0.481013
G1 X109.759 Y50.241 E1.93581
G1 X109.775 Y50.314 E1.93969
;WIDTH:0.450505
G1 X109.79 Y50.388 E1.94333
;WIDTH:0.419999
G1 X109.79 Y69.79 E2.8039
M106 S252.45
;LAYER_CHANGE
;Z:1.25
;HEIGHT:0.3
;WIPE_START
G1 F6240
G1 X109.79 Y69.243 E2.6039
;WIPE_END
G92 E0
G1 Z1.25 F7800
G1 X90.21 Y69.79
G1 E.2 F1800
;WIDTH:0.420003
G1 F727
G1 X90.21 Y50.388 E1.06058
;WIDTH:0.450508
G1 X90.225 Y50.314 E1.06422
;WIDTH:0.481013
G1 X90.241 Y50.241 E1.0681
G1 X90.314 Y50.225 E1.07198
;WIDTH:0.450506
G1 X90.388 Y50.21 E1.07562
;WIDTH:0.419999
G1 X109.612 Y50.21 E1.92829
;WIDTH:0.450506
G1 X109.686 Y50.225 E1.93193
;WIDTH:0.481013
G1 X109.759 Y50.241 E1.93581
G1 X109.775 Y50.314 E1.93969
;WIDTH:0.450505
G1 X109.79 Y50.388 E1.94333
;WIDTH:0.419997
G1 X109.79 Y69.79 E2.80389
;LAYER_CHANGE
;Z:1.55
;HEIGHT:0.3
;WIPE_START
G1 F6240
G1 X109.79 Y69.243 E2.60389
;WIPE_END
G92 E0
G1 Z1.55 F7800
G1 X90.21 Y69.79
G1 E.2 F1800
;WIDTH:0.420003
G1 F727
G1 X90.21 Y50.388 E1.06058
;WIDTH:0.450509
G1 X90.225 Y50.314 E1.06422
;WIDTH:0.481015
G1 X90.241 Y50.241 E1.0681
G1 X90.314 Y50.225 E1.07198
;WIDTH:0.450507
G1 X90.388 Y50.21 E1.07562
;WIDTH:0.419999
G1 X109.612 Y50.21 E1.92829
;WIDTH:0.450506
G1 X109.686 Y50.225 E1.93193
;WIDTH:0.481013
G1 X109.759 Y50.241 E1.93581
G1 X109.775 Y50.314 E1.93969
;WIDTH:0.450505
G1 X109.79 Y50.388 E1.94333
;WIDTH:0.419997
G1 X109.79 Y69.79 E2.80389
;LAYER_CHANGE
;Z:1.85
;HEIGHT:0.3
;WIPE_START
G1 F6240
G1 X109.79 Y69.243 E2.60389
;WIPE_END
G92 E0
G1 Z1.85 F7800
G1 X90.21 Y69.79
G1 E.2 F1800
;WIDTH:0.420003
G1 F727
G1 X90.21 Y50.388 E1.06058
;WIDTH:0.450508
G1 X90.225 Y50.314 E1.06422
;WIDTH:0.481013
G1 X90.241 Y50.241 E1.0681
G1 X90.314 Y50.225 E1.07198
;WIDTH:0.450506
G1 X90.388 Y50.21 E1.07562
;WIDTH:0.419999
G1 X109.612 Y50.21 E1.92829
;WIDTH:0.450506
G1 X109.686 Y50.225 E1.93193
;WIDTH:0.481013
G1 X109.759 Y50.241 E1.93581
G1 X109.775 Y50.314 E1.93969
;WIDTH:0.450505
G1 X109.79 Y50.388 E1.94333
;WIDTH:0.419997
G1 X109.79 Y69.79 E2.80389
;LAYER_CHANGE
;Z:2.15
;HEIGHT:0.3
;WIPE_START
G1 F6240
G1 X109.79 Y69.243 E2.60389
;WIPE_END
G92 E0
G1 Z2.15 F7800
G1 X90.21 Y69.79
G1 E.2 F1800
;WIDTH:0.420003
G1 F727
G1 X90.21 Y50.388 E1.06058
;WIDTH:0.450508
G1 X90.225 Y50.314 E1.06422
;WIDTH:0.481013
G1 X90.241 Y50.241 E1.0681
G1 X90.314 Y50.225 E1.07198
;WIDTH:0.450506
G1 X90.388 Y50.21 E1.07562
;WIDTH:0.419999
G1 X109.612 Y50.21 E1.92829
;WIDTH:0.450506
G1 X109.686 Y50.225 E1.93193
;WIDTH:0.481013
G1 X109.759 Y50.241 E1.93581
G1 X109.775 Y50.314 E1.93969
;WIDTH:0.450505
G1 X109.79 Y50.388 E1.94333
;WIDTH:0.419997
G1 X109.79 Y69.79 E2.80389
;LAYER_CHANGE
;Z:2.45
;HEIGHT:0.3
;WIPE_START
G1 F6240
G1 X109.79 Y69.243 E2.60389
;WIPE_END
G92 E0
G1 Z2.45 F7800
G1 X90.21 Y69.79
G1 E.2 F1800
;WIDTH:0.420003
G1 F727
G1 X90.21 Y50.388 E1.06058
;WIDTH:0.450508
G1 X90.225 Y50.314 E1.06422
;WIDTH:0.481013
G1 X90.241 Y50.241 E1.0681
G1 X90.314 Y50.225 E1.07198
;WIDTH:0.450506
G1 X90.388 Y50.21 E1.07562
;WIDTH:0.419999
G1 X109.612 Y50.21 E1.92829
;WIDTH:0.450506
G1 X109.686 Y50.225 E1.93193
;WIDTH:0.481013
G1 X109.759 Y50.241 E1.93581
G1 X109.775 Y50.314 E1.93969
;WIDTH:0.450505
G1 X109.79 Y50.388 E1.94333
;WIDTH:0.419997
G1 X109.79 Y69.79 E2.80389
;LAYER_CHANGE
;Z:2.75
;HEIGHT:0.3
;WIPE_START
G1 F6240
G1 X109.79 Y69.243 E2.60389
;WIPE_END
G92 E0
G1 Z2.75 F7800
G1 X90.21 Y69.79
G1 E.2 F1800
;WIDTH:0.420003
G1 F727
G1 X90.21 Y50.388 E1.06058
;WIDTH:0.450508
G1 X90.225 Y50.314 E1.06422
;WIDTH:0.481013
G1 X90.241 Y50.241 E1.0681
G1 X90.314 Y50.225 E1.07198
;WIDTH:0.450506
G1 X90.388 Y50.21 E1.07562
;WIDTH:0.419999
G1 X109.612 Y50.21 E1.92829
;WIDTH:0.450506
G1 X109.686 Y50.225 E1.93193
;WIDTH:0.481013
G1 X109.759 Y50.241 E1.93581
G1 X109.775 Y50.314 E1.93969
;WIDTH:0.450505
G1 X109.79 Y50.388 E1.94333
;WIDTH:0.419997
G1 X109.79 Y69.79 E2.80389
;LAYER_CHANGE
;Z:3.05
;HEIGHT:0.3
;WIPE_START
G1 F6240
G1 X109.79 Y69.243 E2.60389
;WIPE_END
G92 E0
G1 Z3.05 F7800
G1 X90.21 Y69.79
G1 E.2 F1800
;WIDTH:0.420003
G1 F727
G1 X90.21 Y50.388 E1.06058
;WIDTH:0.450508
G1 X90.225 Y50.314 E1.06422
;WIDTH:0.481013
G1 X90.241 Y50.241 E1.0681
G1 X90.314 Y50.225 E1.07198
;WIDTH:0.450506
G1 X90.388 Y50.21 E1.07562
;WIDTH:0.419999
G1 X109.612 Y50.21 E1.92829
;WIDTH:0.450506
G1 X109.686 Y50.225 E1.93193
;WIDTH:0.481013
G1 X109.759 Y50.241 E1.93581
G1 X109.775 Y50.314 E1.93969
;WIDTH:0.450505
G1 X109.79 Y50.388 E1.94333
;WIDTH:0.419997
G1 X109.79 Y69.79 E2.80389
;LAYER_CHANGE
;Z:3.35
;HEIGHT:0.3
;WIPE_START
G1 F6240
G1 X109.79 Y69.243 E2.60389
;WIPE_END
G92 E0
G1 Z3.35 F7800
G1 X90.21 Y69.79
G1 E.2 F1800
;WIDTH:0.420003
G1 F727
G1 X90.21 Y50.388 E1.06058
;WIDTH:0.450508
G1 X90.225 Y50.314 E1.06422
;WIDTH:0.481013
G1 X90.241 Y50.241 E1.0681
G1 X90.314 Y50.225 E1.07198
;WIDTH:0.450506
G1 X90.388 Y50.21 E1.07562
;WIDTH:0.419999
G1 X109.612 Y50.21 E1.92829
;WIDTH:0.450506
G1 X109.686 Y50.225 E1.93193
;WIDTH:0.481013
G1 X109.759 Y50.241 E1.93581
G1 X109.775 Y50.314 E1.93969
;WIDTH:0.450505
G1 X109.79 Y50.388 E1.94333
;WIDTH:0.419997
G1 X109.79 Y69.79 E2.80389
;LAYER_CHANGE
;Z:3.65
;HEIGHT:0.3
;WIPE_START
G1 F6240
G1 X109.79 Y69.243 E2.60389
;WIPE_END
G92 E0
G1 Z3.65 F7800
G1 X90.21 Y69.79
G1 E.2 F1800
;WIDTH:0.420003
G1 F727
G1 X90.21 Y50.388 E1.06058
;WIDTH:0.450508
G1 X90.225 Y50.314 E1.06422
;WIDTH:0.481013
G1 X90.241 Y50.241 E1.0681
G1 X90.314 Y50.225 E1.07198
;WIDTH:0.450506
G1 X90.388 Y50.21 E1.07562
;WIDTH:0.419999
G1 X109.612 Y50.21 E1.92829
;WIDTH:0.450506
G1 X109.686 Y50.225 E1.93193
;WIDTH:0.481013
G1 X109.759 Y50.241 E1.93581
G1 X109.775 Y50.314 E1.93969
;WIDTH:0.450505
G1 X109.79 Y50.388 E1.94333
;WIDTH:0.419997
G1 X109.79 Y69.79 E2.80389
;LAYER_CHANGE
;Z:3.95
;HEIGHT:0.3
;WIPE_START
G1 F6240
G1 X109.79 Y69.243 E2.60389
;WIPE_END
G92 E0
G1 Z3.95 F7800
G1 X90.21 Y69.79
G1 E.2 F1800
;WIDTH:0.420003
G1 F727
G1 X90.21 Y50.388 E1.06058
;WIDTH:0.450508
G1 X90.225 Y50.314 E1.06422
;WIDTH:0.481013
G1 X90.241 Y50.241 E1.0681
G1 X90.314 Y50.225 E1.07198
;WIDTH:0.450506
G1 X90.388 Y50.21 E1.07562
;WIDTH:0.419999
G1 X109.612 Y50.21 E1.92829
;WIDTH:0.450506
G1 X109.686 Y50.225 E1.93193
;WIDTH:0.481013
G1 X109.759 Y50.241 E1.93581
G1 X109.775 Y50.314 E1.93969
;WIDTH:0.450505
G1 X109.79 Y50.388 E1.94333
;WIDTH:0.419997
G1 X109.79 Y69.79 E2.80389
;LAYER_CHANGE
;Z:4.25
;HEIGHT:0.3
;WIPE_START
G1 F6240
G1 X109.79 Y69.243 E2.60389
;WIPE_END
G92 E0
G1 Z4.25 F7800
G1 X90.21 Y69.79
G1 E.2 F1800
;WIDTH:0.420003
G1 F727
